;FLAVOR:Marlin
;TIME:998
;Filament used: 0.258686m
;Layer height: 0.08
;MINX:-8.417
;MINY:-9.519
;MINZ:0.2
;MAXX:8.34
;MAXY:9.519
;MAXZ:15.96
;Generated with Cura_SteamEngine 5.4.0
M82 ;absolute extrusion mode
M140 S0
M104 S200 T0
M104 S0 T1
M107
G90
G28
M132 X Y Z A B
G1 Z50.00 F400
G161 X Y F3300
M6 T0
M907 X100 Y100 Z40 A80 B20
M108 T0
G1 Z.20 F400
G92 E0
G92 E0
G1 F1800 E-1.3
;LAYER_COUNT:198
;LAYER:0
M106 S255
;MESH:D4_16mm.stl
G0 F3000 X3.065 Y2.583 Z0.2
;TYPE:WALL-INNER
G1 F1800 E0
G1 F1345.8 X2.385 Y2.56 E0.03329
G1 F1500 X2.09 Y2.504 E0.04648
G1 X1.987 Y2.472 E0.05121
G1 X1.707 Y2.353 E0.06457
G1 X1.464 Y2.204 E0.07708
G1 X1.246 Y2.023 E0.08952
G1 X1.057 Y1.816 E0.10183
G1 X0.891 Y1.581 E0.11446
G1 X0.774 Y1.366 E0.12521
G1 X0.655 Y1.06 E0.13962
G1 X0.584 Y0.784 E0.15213
G1 X0.541 Y0.514 E0.16414
G1 X0.527 Y0.243 E0.17605
G1 X0.536 Y-0.042 E0.18857
G1 X0.569 Y-.292 E0.19964
G1 X0.662 Y-.703 E0.21814
G1 X0.748 Y-.951 E0.22967
G1 X0.87 Y-1.227 E0.24291
G1 X0.976 Y-1.419 E0.25254
G1 X1.134 Y-1.614 E0.26356
G1 X1.424 Y-1.767 E0.27796
G1 X1.826 Y-1.757 E0.29561
G1 X2.156 Y-1.652 E0.31082
G1 X2.662 Y-1.472 E0.33439
G1 X2.775 Y-1.419 E0.33987
G1 X2.87 Y-1.354 E0.34493
G1 X3.028 Y-1.182 E0.35518
G1 X3.248 Y-1.203 E0.36488
G1 X4.007 Y-1.067 E0.39874
G1 X4.097 Y-1.216 E0.40638
G1 X4.182 Y-1.327 E0.41252
G1 X4.821 Y-1.561 E0.44239
G1 X5.13 Y-1.517 E0.4561
G1 F1632.7 X5.58 Y-1.392 E0.47494
G1 F1841.4 X5.684 Y-1.351 E0.47893
G1 F1674.4 X5.157 Y-1.592 E0.50172
G1 F1500 X-2.479 Y-6.001 E0.88884
G1 F1398.1 X-2.933 Y-6.226 E0.91271
G1 F1309.1 X-3.24 Y-6.403 E0.93054
G1 F1200 X-3.695 Y-6.605 E0.95786
G1 F1107.7 X-4.232 Y-6.915 E0.99472
G1 X-4.193 Y-6.684 E1.00865
G1 X-4.177 Y-6.336 E1.02936
G1 X-4.189 Y-6.07 E1.04519
G1 X-4.219 Y-5.841 E1.05892
G1 X-4.098 Y-5.916 E1.06738
G1 X-4.022 Y-5.95 E1.07233
G1 X-3.818 Y-5.999 E1.08481
G1 F1200 X-3.471 Y-5.908 E1.10449
G1 F1318.7 X-3.35 Y-5.847 E1.11126
G1 X-3.246 Y-5.778 E1.11749
G1 F1398.1 X-3.068 Y-5.48 E1.13385
G1 F1500 X-2.719 Y-4.659 E1.17301
G1 X-2.662 Y-4.346 E1.18698
G1 X-2.717 Y-4.099 E1.19809
G1 X-2.82 Y-3.924 E1.207
G1 X-2.894 Y-3.846 E1.21172
G1 X-3.022 Y-3.752 E1.2187
G1 X-4.248 Y-3.1 E1.27966
G1 X-5.556 Y-2.28 E1.34744
G1 X-5.694 Y-2.213 E1.35417
G1 X-5.864 Y-2.174 E1.36183
G1 X-6.095 Y-2.187 E1.37199
G1 X-6.374 Y-2.316 E1.38548
G1 X-6.609 Y-2.624 E1.40249
G1 X-6.87 Y-3.28 E1.43349
G1 X-6.91 Y-3.422 E1.43996
G1 X-6.92 Y-3.546 E1.44543
G1 X-6.909 Y-3.678 E1.45124
G1 X-6.57 Y-5.516 E1.5333
G1 X-6.701 Y-5.299 E1.54443
G1 X-7.343 Y-4.937 E1.57678
G1 X-7.46 Y-4.945 E1.58193
G1 X-7.917 Y-5.296 E1.60723
G1 X-7.918 Y3.742 E2.00403
G1 F1666.7 X-7.967 Y4.313 E2.02667
G1 F1860.5 X-7.964 Y4.462 E2.03195
G1 F1655.2 X-7.917 Y4.896 E2.04932
G1 F1496.9 X-7.917 Y5.71 E2.08513
G1 X-7.362 Y4.855 E2.12998
G1 X-7.485 Y4.75 E2.13709
G1 F1655.2 X-7.577 Y4.429 E2.15038
G1 F1860.5 X-7.584 Y4.313 E2.15449
G1 F1666.7 X-7.491 Y3.883 E2.17187
G1 F1500 X-7.088 Y3.339 E2.2016
G1 X-6.686 Y3.069 E2.22286
G1 X-6.596 Y3.052 E2.22688
G1 X-6.362 Y3.105 E2.23741
G1 X-6.128 Y2.692 E2.25825
G1 X-5.94 Y2.513 E2.26965
G1 X-5.741 Y2.422 E2.27926
G1 X-5.565 Y2.396 E2.28707
G1 X-5.391 Y2.412 E2.29474
G1 X-5.245 Y2.461 E2.3015
G1 X-4.343 Y2.994 E2.3475
G1 X-4.212 Y3.106 E2.35506
G1 X-4.138 Y3.202 E2.36039
G1 X-4.065 Y3.35 E2.36763
G1 X-4.028 Y3.514 E2.37501
G1 X-4.024 Y3.633 E2.38024
G1 X-4.149 Y4.001 E2.3973
G1 X-4.328 Y4.262 E2.4112
G1 X-3.391 Y4.817 E2.45901
G1 X-3.295 Y4.885 E2.46417
G1 X-3.143 Y5.063 E2.47445
G1 X-3.04 Y5.395 E2.48971
G1 X-3.177 Y5.862 E2.51108
G1 F1254.4 X-3.575 Y6.526 E2.55172
G1 F1146.5 X-3.383 Y6.458 E2.56342
G1 F1348.3 X-2.858 Y6.217 E2.59164
G1 F1500 X2.818 Y2.942 E2.87934
G1 F1417.3 X3.013 Y2.797 E2.89063
G1 F1190.1 X3.272 Y2.567 E2.9098
G1 F1139.2 X3.065 Y2.583 E2.9218
G0 F3000 X3.272 Y2.567
G1 F1090.9 X3.582 Y2.409 E2.9428
G1 F1094.2 X3.813 Y2.258 E2.95941
G1 F1800 E1.65941
G0 F3000 X3.017 Y2.675
G0 X1.395 Y2.4
G0 X0.747 Y1.727
G0 X0.394 Y0.857
G0 X0.337 Y-0.04
G0 X0.574 Y-1.054
G0 X1.384 Y-1.635
G0 X5.071 Y-1.283
G0 X5.819 Y-1.134
G0 X6.521 Y0.61
G0 X6.354 Y0.668
G1 F1800 E2.95941
G1 F1500 X6.31 Y0.927 E2.97095
G1 X7.613 Y0.174 E3.03702
G1 X7.612 Y-.176 E3.05238
G1 X6.231 Y-.972 E3.12237
G1 F1702.1 X5.785 Y-1.297 E3.14372
G1 X6.149 Y-.91 E3.16427
G1 F1500 X6.281 Y-.41 E3.18698
G1 X6.323 Y-.169 E3.19772
G1 X6.359 Y0.145 E3.21159
G1 X6.368 Y0.424 E3.22385
G1 X6.354 Y0.668 E3.23458
G1 F1800 E1.93458
G0 F3000 X6.521 Y0.61
G0 X6.502 Y0.172
G0 X6.371 Y-.711
G0 X5.785 Y-1.297
G1 F1800 E3.23458
G1 F1930.3 X5.684 Y-1.351 E3.23849
G1 F1800 E1.93849
G0 F3000 X6.371 Y-.711
G0 X5.819 Y-1.134
G0 X4.261 Y-1.773
G0 X1.384 Y-1.635
G0 X-3.36 Y6.35
G0 X-3.575 Y6.526
G1 F1800 E3.23849
G1 F1086 X-3.693 Y6.602 E3.247
G1 F1087.6 X-3.856 Y6.689 E3.25818
G1 F1800 E1.95818
G0 F3000 X-3.36 Y6.35
G0 X-6.321 Y8.07
G0 X-6.433 Y7.845
G1 F1800 E3.25818
G1 F1614.3 X-7.036 Y7.889 E3.28285
G1 F1500 X-7.917 Y7.496 E3.3252
G1 X-7.917 Y8.79 E3.38201
G1 X-7.615 Y8.964 E3.39731
G1 X-6.999 Y8.61 E3.42851
G1 F1614.3 X-6.237 Y8.208 E3.46365
G1 F1899.7 X-4.192 Y7.066 E3.54485
G1 F1422.9 X-3.856 Y6.689 E3.56822
G1 X-4.355 Y6.762 E3.59156
G1 F1899.7 X-6.433 Y7.845 E3.67279
G1 F1800 E2.37279
G0 F3000 X-6.321 Y8.07
G0 X-3.781 Y6.275
G0 X-3.077 Y5.297
G0 X-7.711 Y-5.139
G0 X-8.225 Y-6.556
G0 X-8.153 Y-6.668
G0 X-7.02 Y-8.382
G0 X-6.974 Y-8.273
G1 F1800 E3.67279
G1 F1058.8 X-6.765 Y-8.36 E3.68687
G1 X-7.614 Y-8.849 E3.74781
G1 X-7.819 Y-8.731 E3.76252
G1 X-7.818 Y-7.659 E3.82919
G1 X-7.707 Y-7.77 E3.83896
G1 X-7.393 Y-8.028 E3.86423
G1 X-7.256 Y-8.119 E3.87446
G1 X-6.974 Y-8.273 E3.89445
G1 F1800 E2.59445
G0 F3000 X-7.02 Y-8.382
G0 X-5.562 Y-8.081
G0 X-5.019 Y-7.752
G0 X-3.525 Y-5.896
G0 X-2.78 Y-4.165
G0 X-2.808 Y-3.618
G0 X-3.16 Y-4.284
;TYPE:WALL-OUTER
G1 F1800 E3.89445
G1 F1500 X-3.194 Y-4.226 E3.8974
G1 X-3.245 Y-4.179 E3.90044
G1 X-4.488 Y-3.516 E3.96229
G1 X-5.857 Y-2.665 E4.03306
G1 X-5.914 Y-2.652 E4.03563
G1 X-5.991 Y-2.656 E4.03902
G1 X-6.084 Y-2.699 E4.04351
G1 X-6.163 Y-2.802 E4.04921
G1 X-6.437 Y-3.505 E4.08234
G1 X-6.437 Y-3.591 E4.08611
G1 X-6.03 Y-5.793 E4.18443
G1 X-6.01 Y-5.965 E4.19203
G1 X-6.007 Y-6.113 E4.19853
G1 X-6.034 Y-6.338 E4.20848
G1 X-6.078 Y-6.454 E4.21392
G1 X-6.137 Y-6.516 E4.21768
G1 X-6.212 Y-6.507 E4.221
G1 X-6.271 Y-6.485 E4.22376
G1 X-6.438 Y-6.379 E4.23245
G1 X-6.546 Y-6.291 E4.23856
G1 X-6.724 Y-6.109 E4.24974
G1 X-6.905 Y-5.88 E4.26255
G1 X-7.119 Y-5.537 E4.2803
G1 X-7.333 Y-5.417 E4.29108
G1 X-7.419 Y-5.423 E4.29486
G1 X-7.625 Y-5.581 E4.30626
G1 F1509.4 X-7.938 Y-6.473 E4.3475
G1 F1515.8 X-7.897 Y-6.624 E4.3543
G1 F1506.3 X-7.767 Y-6.825 E4.36477
G1 F1500 X-7.546 Y-7.104 E4.38039
G1 X-7.351 Y-7.309 E4.39281
G1 X-7.071 Y-7.545 E4.40889
G1 X-6.917 Y-7.646 E4.41698
G1 X-6.744 Y-7.74 E4.42562
G1 X-6.556 Y-7.819 E4.43457
G1 X-6.371 Y-7.874 E4.44305
G1 X-6.216 Y-7.902 E4.44996
G1 X-6.004 Y-7.914 E4.45928
G1 F1512.6 X-5.798 Y-7.889 E4.46832
G1 F1535.2 X-5.633 Y-7.844 E4.47565
G1 F1558.4 X-5.49 Y-7.78 E4.48227
G1 F1568.6 X-5.319 Y-7.679 E4.49061
G1 F1551.7 X-5.176 Y-7.561 E4.49848
G1 F1522.2 X-5.054 Y-7.43 E4.50623
G1 F1503.1 X-4.953 Y-7.279 E4.51418
G1 F1500 X-4.895 Y-7.165 E4.5198
G1 X-4.808 Y-6.913 E4.5315
G1 X-4.762 Y-6.681 E4.54189
G1 X-4.742 Y-6.361 E4.55597
G1 X-4.756 Y-6.07 E4.56876
G1 X-4.804 Y-5.754 E4.58279
G1 X-5.085 Y-4.584 E4.63562
G1 X-3.841 Y-5.412 E4.70122
G1 X-3.757 Y-5.437 E4.70507
G1 X-3.648 Y-5.424 E4.70989
G1 X-3.576 Y-5.383 E4.71353
G1 X-3.51 Y-5.292 E4.71846
G1 X-3.161 Y-4.471 E4.75763
G1 X-3.142 Y-4.366 E4.76231
G1 X-3.16 Y-4.284 E4.766
G0 F3000 X-3.194 Y-4.226
G0 X-3.245 Y-4.179
G0 X-3.478 Y-4.055
G1 F1800 E3.466
G0 F3000 X-3.151 Y-3.435
G0 X5.819 Y-1.134
G0 X6.371 Y-.711
G0 X5.574 Y-.931
G1 F1800 E4.766
G1 F1500 X5.685 Y-.785 E4.77405
G1 X5.808 Y-.327 E4.79487
G1 X5.852 Y-0.072 E4.80623
G1 X5.882 Y0.198 E4.81816
G1 X5.888 Y0.383 E4.82629
G1 X5.878 Y0.6 E4.83582
G1 X5.849 Y0.792 E4.84435
G1 X5.8 Y0.98 E4.85288
G1 X5.731 Y1.156 E4.86118
G1 F1503.1 X5.666 Y1.277 E4.8672
G1 F1551.7 X5.556 Y1.416 E4.87472
G1 F1643.8 X5.436 Y1.533 E4.88143
G1 F1726.6 X5.304 Y1.635 E4.8878
G1 F1773.4 X5.138 Y1.733 E4.89495
G1 F1739.1 X4.984 Y1.802 E4.90134
G1 F1651.4 X4.823 Y1.853 E4.90808
G1 F1551.7 X4.649 Y1.88 E4.91555
G1 F1503.1 X4.506 Y1.873 E4.92182
G1 F1500 X4.257 Y1.82 E4.933
G1 X4.039 Y1.729 E4.94337
G1 X3.836 Y1.584 E4.95433
G1 X3.729 Y1.47 E4.96119
G1 X3.62 Y1.636 E4.96991
G1 X3.43 Y1.83 E4.98183
G1 X3.301 Y1.922 E4.98879
G1 X3.199 Y1.975 E4.99383
G1 X3.065 Y2.029 E5.00018
G1 X2.897 Y2.07 E5.00777
G1 X2.62 Y2.092 E5.01997
G1 X2.374 Y2.075 E5.03079
G1 X2.161 Y2.024 E5.04041
G1 X1.979 Y1.953 E5.04899
G1 X1.762 Y1.828 E5.05998
G1 X1.617 Y1.714 E5.06808
G1 X1.465 Y1.557 E5.07767
G1 X1.31 Y1.346 E5.08917
G1 X1.209 Y1.164 E5.09831
G1 X1.118 Y0.933 E5.10921
G1 X1.063 Y0.732 E5.11835
G1 X1.019 Y0.465 E5.13023
G1 X1.007 Y0.198 E5.14197
G1 X1.015 Y-0.005 E5.15089
G1 X1.035 Y-.171 E5.15823
G1 X1.113 Y-.539 E5.17474
G1 X1.209 Y-.812 E5.18745
G1 X1.29 Y-.995 E5.19624
G1 X1.396 Y-1.187 E5.20586
G1 X1.449 Y-1.252 E5.20955
G1 X1.546 Y-1.303 E5.21436
G1 X1.68 Y-1.299 E5.22024
G1 X2.017 Y-1.192 E5.23577
G1 X2.498 Y-1.021 E5.25818
G1 X2.567 Y-.982 E5.26166
G1 X2.615 Y-.929 E5.2648
G1 X2.63 Y-.687 E5.27544
G1 F1309.1 X2.663 Y-.606 E5.27984
G1 F1161.3 X2.459 Y-.34 E5.29885
G1 X2.346 Y-.129 E5.31243
G1 X2.267 Y0.091 E5.32568
G1 X2.244 Y0.283 E5.33665
G1 F1159.4 X2.272 Y0.492 E5.34863
G1 X2.338 Y0.623 E5.35696
G1 X2.406 Y0.69 E5.36238
G1 X2.472 Y0.714 E5.36637
G1 X2.549 Y0.711 E5.37075
G1 X2.61 Y0.697 E5.3743
G1 X2.682 Y0.662 E5.37885
G1 X2.758 Y0.585 E5.38499
G1 X2.815 Y0.478 E5.39188
G1 X2.864 Y0.297 E5.40253
G1 X2.876 Y0.205 E5.4078
G1 F1161.3 X2.884 Y-.518 E5.4488
G1 F1309.1 X2.963 Y-.555 E5.45319
G1 F1500 X3.14 Y-.72 E5.46381
G1 X3.212 Y-.725 E5.46698
G1 X3.882 Y-.602 E5.49689
G1 F1506.3 X3.957 Y-.572 E5.50042
G1 F1519 X4.048 Y-.474 E5.50622
G1 F1484.5 X4.087 Y-.367 E5.51127
G1 F1355.9 X4.123 Y0.095 E5.53378
G1 F1276.6 X4.153 Y0.26 E5.54243
G1 F1274.3 X4.171 Y0.308 E5.54508
G1 X4.222 Y0.394 E5.55025
G1 X4.292 Y0.456 E5.55508
G1 X4.349 Y0.481 E5.55829
G1 X4.465 Y0.496 E5.56434
G1 X4.515 Y0.489 E5.56695
G1 X4.572 Y0.461 E5.57023
G1 X4.611 Y0.425 E5.57297
G1 X4.66 Y0.347 E5.57773
G1 X4.69 Y0.22 E5.58448
G1 X4.688 Y0.054 E5.59306
G1 F1306.7 X4.634 Y-.232 E5.60772
G1 F1382 X4.58 Y-.427 E5.61737
G1 F1475.4 X4.469 Y-.688 E5.63003
G1 F1519 X4.444 Y-.821 E5.63589
G1 F1506.3 X4.464 Y-.898 E5.63937
G1 F1500 X4.54 Y-1.008 E5.64524
G1 X4.754 Y-1.086 E5.65524
G1 X5.04 Y-1.045 E5.66793
G1 X5.498 Y-.959 E5.68838
G1 X5.574 Y-.931 E5.69194
G0 F3000 X5.685 Y-.785
G0 X5.741 Y-.576
G1 F1800 E4.39194
G0 F3000 X6.39 Y-.687
G0 X6.102 Y0.708
G0 X5.891 Y1.378
G0 X6.04 Y1.636
G1 F1800 E5.69194
G1 F1503.1 X8.093 Y0.451 E5.79579
G1 F1500 X8.092 Y-.453 E5.83548
G1 F1503.1 X-4.683 Y-7.829 E6.48177
G1 F1538.5 X-5.287 Y-8.189 E6.51187
G1 F1535.2 X-5.86 Y-8.507 E6.53998
G1 F1500 X-7.614 Y-9.519 E6.62889
G1 X-8.399 Y-9.067 E6.66866
G1 X-8.398 Y4.896 E7.28168
G1 F1528.7 X-8.407 Y6.518 E7.35156
G1 F1589.4 X-8.417 Y6.781 E7.36246
G1 F1558.4 X-8.398 Y7.355 E7.38673
G1 F1500 X-8.397 Y9.068 E7.46194
G1 X-7.615 Y9.519 E7.50157
G1 F1503.1 X4.769 Y2.37 E8.12805
G1 F1610.7 X5.194 Y2.162 E8.1474
G1 F1747.6 X5.537 Y1.968 E8.16225
G1 F1625.3 X6.04 Y1.636 E8.18667
G0 F3000 X6.386 Y1.436
G1 F1800 E6.88667
G0 F3000 X6.526 Y0.615
G0 X5.819 Y-1.134
G0 X4.261 Y-1.773
G0 X1.384 Y-1.635
G0 X-3.182 Y4.685
G0 X-3.553 Y5.312
G1 F1800 E8.18667
G1 F1500 X-3.519 Y5.423 E8.19177
G1 X-3.565 Y5.579 E8.19891
G1 X-3.943 Y6.086 E8.22667
G1 X-6.633 Y7.446 E8.35901
G1 X-6.84 Y7.451 E8.3681
G1 X-7.851 Y7 E8.4167
G1 F1541.8 X-7.98 Y6.808 E8.42658
G1 F1572.1 X-7.947 Y6.654 E8.43318
G1 F1528.7 X-6.691 Y4.705 E8.53307
G1 F1500 X-7.027 Y4.524 E8.54982
G1 X-7.103 Y4.458 E8.55424
G1 X-7.158 Y4.333 E8.56024
G1 X-7.105 Y4.169 E8.5678
G1 X-6.702 Y3.625 E8.59753
G1 X-6.554 Y3.525 E8.60537
G1 X-6.38 Y3.565 E8.61321
G1 X-6.147 Y3.713 E8.62533
G1 X-5.74 Y2.974 E8.66236
G1 X-5.677 Y2.915 E8.66615
G1 X-5.611 Y2.884 E8.66936
G1 X-5.552 Y2.876 E8.67197
G1 X-5.493 Y2.881 E8.67457
G1 X-5.445 Y2.897 E8.67679
G1 X-4.61 Y3.393 E8.71943
G1 X-4.566 Y3.43 E8.72195
G1 X-4.517 Y3.512 E8.72615
G1 X-4.504 Y3.607 E8.73036
G1 X-4.545 Y3.729 E8.73601
G1 X-5.014 Y4.414 E8.77246
G1 X-3.604 Y5.253 E8.84449
G1 X-3.553 Y5.312 E8.84791
G0 F3000 X-3.519 Y5.423
G0 X-3.565 Y5.579
G0 X-3.637 Y5.676
G1 F1800 E7.54791
G0 F3000 X-3.073 Y6.09
G0 X0.383 Y0.537
G0 X0.405 Y-.289
G0 X0.712 Y-1.27
G0 X1.193 Y-2.116
G0 X3.006 Y-2.317
;TYPE:SKIN
G1 F1800 E8.84791
G1 F1548.4 X4.037 Y-1.722 E8.89854
G1 F1551.7 X3.936 Y-1.685 E8.90311
G1 X3.845 Y-1.624 E8.90776
G1 X3.798 Y-1.562 E8.91106
G1 X3.283 Y-1.65 E8.93323
G1 X3.207 Y-1.647 E8.93646
G1 X3.154 Y-1.7 E8.93964
G1 F1565.2 X2.996 Y-1.804 E8.9476
G1 F1561.8 X2.809 Y-1.898 E8.95642
G1 F1522.2 X2.809 Y-1.905 E8.95673
G1 F1500 X2.33 Y-2.075 E8.97904
G1 X1.966 Y-2.19 E8.9958
G1 X1.899 Y-2.201 E8.99878
G1 X1.375 Y-2.214 E9.02179
G1 X1.256 Y-2.187 E9.02715
G1 X0.881 Y-1.99 E9.04575
G1 X0.806 Y-1.929 E9.04999
G1 X0.598 Y-1.671 E9.06454
G1 X0.428 Y-1.367 E9.07983
G1 X0.324 Y-1.119 E9.09164
G1 X0.219 Y-.817 E9.10568
G1 X0.125 Y-.406 E9.12419
G1 X0.081 Y-0.084 E9.13846
G1 X0.071 Y0.252 E9.15322
G1 X0.087 Y0.568 E9.16711
G1 X0.132 Y0.851 E9.17969
G1 X0.21 Y1.172 E9.19419
G1 X0.359 Y1.557 E9.21231
G1 X0.494 Y1.805 E9.22471
G1 X0.769 Y2.187 E9.24538
G1 X1.015 Y2.431 E9.26059
G1 X1.298 Y2.644 E9.27614
G1 X1.617 Y2.817 E9.29207
G1 X1.923 Y2.931 E9.30641
G1 X-2.624 Y5.55 E9.53678
G1 X-2.594 Y5.446 E9.54153
G1 X-2.596 Y5.309 E9.54755
G1 X-2.728 Y4.881 E9.56721
G1 X-2.775 Y4.796 E9.57148
G1 X-3.003 Y4.536 E9.58666
G1 X-3.143 Y4.434 E9.59427
G1 X-3.709 Y4.098 E9.62316
G1 X-3.581 Y3.719 E9.64073
G1 X-3.569 Y3.657 E9.6435
G1 X-3.574 Y3.462 E9.65206
G1 X-3.64 Y3.185 E9.66456
G1 X-3.758 Y2.947 E9.67623
G1 X-3.878 Y2.795 E9.68473
G1 X-3.969 Y2.705 E9.69035
G1 X-4.084 Y2.617 E9.69671
G1 X-5.056 Y2.047 E9.74618
G1 X-5.324 Y1.962 E9.75852
G1 X-5.602 Y1.943 E9.77075
G1 X-5.838 Y1.978 E9.78123
G1 X-5.902 Y1.997 E9.78416
G1 X-6.156 Y2.112 E9.7964
G1 X-6.222 Y2.157 E9.79991
G1 X-6.47 Y2.392 E9.81491
G1 X-6.507 Y2.437 E9.81747
G1 X-6.604 Y2.602 E9.82587
G1 X-6.666 Y2.601 E9.82859
G1 X-6.797 Y2.627 E9.83445
G1 X-6.872 Y2.66 E9.83805
G1 X-7.402 Y3.015 E9.86606
G1 X-7.461 Y3.072 E9.86966
G1 X-7.461 Y-2.378 E10.10893
G1 F1414.5 X-7.433 Y-3.079 E10.14159
G1 F1276.6 X-7.406 Y-3.302 E10.15318
G1 F1267.6 X-7.335 Y-3.126 E10.16304
G1 F1403.5 X-7.003 Y-2.403 E10.20037
G1 F1500 X-6.695 Y-1.999 E10.22268
G1 X-6.605 Y-1.926 E10.22776
G1 X-6.243 Y-1.76 E10.24525
G1 X-6.156 Y-1.738 E10.24919
G1 X-5.812 Y-1.722 E10.26431
G1 X-5.542 Y-1.783 E10.27646
G1 X-5.305 Y-1.898 E10.28802
G1 X-4.022 Y-2.702 E10.3545
G1 X-2.795 Y-3.355 E10.41552
G1 X-2.603 Y-3.496 E10.42598
G1 X-2.479 Y-3.621 E10.43371
G1 X-2.308 Y-3.899 E10.44804
G1 X-2.28 Y-3.97 E10.45139
G1 X-2.211 Y-4.282 E10.46542
G1 X-2.209 Y-4.378 E10.46963
G1 X-2.285 Y-4.794 E10.4882
G1 X-2.597 Y-5.542 E10.52378
G1 X2.997 Y-2.312 E10.80738
G1 F1522.2 X3.006 Y-2.317 E10.80782
G1 F1800 E9.50782
G0 F3000 X-6.359 Y-1.607
G0 X-7.409 Y-3.776
G1 F1800 E10.80782
G1 F1548.4 X-7.528 Y-4.374 E10.83376
G1 F2080.9 X-7.528 Y-4.56 E10.83964
G1 X-7.354 Y-4.548 E10.84516
G1 X-7.267 Y-4.571 E10.84801
G1 X-7.126 Y-4.65 E10.85313
G1 X-7.184 Y-4.343 E10.86301
G1 F1548.4 X-7.409 Y-3.776 E10.88896
G1 F1250 X-7.419 Y-3.545 E10.90114
G1 F1243.5 X-7.406 Y-3.302 E10.91403
G1 F1800 E9.61403
G0 F3000 X-7.027 Y2.475
G1 F1800 E10.91403
G1 F1500 X-7.221 Y2.281 E10.92607
G0 F3000 X-6.62 Y2.204
G1 F1500 X-7.221 Y1.603 E10.96339
G0 F3000 X-7.221 Y0.924
G1 F1500 X-6.253 Y1.892 E11.02349
G0 F3000 X-5.744 Y1.722
G1 F1500 X-7.221 Y0.245 E11.11519
G0 F3000 X-7.22 Y-.432
G1 F1500 X-4.96 Y1.827 E11.25548
G1 X-4.876 Y1.911
G1 F1800 E9.95548
G0 F3000 X-3.334 Y3.453
G1 F1800 E11.25548
G1 F1500 X-1.921 Y4.867 E11.34325
G0 F3000 X-2.351 Y5.115
G1 F1500 X-2.428 Y5.038 E11.34803
G0 F3000 X-1.49 Y4.618
G1 F1500 X-7.22 Y-1.111 E11.70376
G0 F3000 X-7.22 Y-1.79
G1 F1500 X-1.059 Y4.371 E12.08629
