;FLAVOR:Marlin
;TIME:1464
;Filament used: 0.480808m
;Layer height: 0.12
;MINX:123.1
;MINY:133.203
;MINZ:0.12
;MAXX:176.9
;MAXY:167.305
;MAXZ:9.96
;Generated with Cura_SteamEngine 5.4.0
M140 S60
M105
M190 S60
M104 S200
M105
M109 S200
M82 ;absolute extrusion mode
M201 X500.00 Y500.00 Z100.00 E5000.00 ;Setup machine max acceleration
M203 X500.00 Y500.00 Z10.00 E50.00 ;Setup machine max feedrate
M204 P500.00 R1000.00 T500.00 ;Setup Print/Retract/Travel acceleration
M205 X8.00 Y8.00 Z0.40 E5.00 ;Setup Jerk
M220 S100 ;Reset Feedrate
M221 S100 ;Reset Flowrate

G28 ;Home

G92 E0 ;Reset Extruder
G1 Z2.0 F3000 ;Move Z Axis up
G1 X10.1 Y20 Z0.28 F5000.0 ;Move to start position
G1 X10.1 Y200.0 Z0.28 F1500.0 E15 ;Draw the first line
G1 X10.4 Y200.0 Z0.28 F5000.0 ;Move to side a little
G1 X10.4 Y20 Z0.28 F1500.0 E30 ;Draw the second line
G92 E0 ;Reset Extruder
G1 Z2.0 F3000 ;Move Z Axis up

G92 E0
G92 E0
G1 F1500 E-6.5
;LAYER_COUNT:83
;LAYER:0
M107
G0 F6000 X126.555 Y136.217 Z0.12
;TYPE:SKIRT
G1 F1500 E0
G1 F1200 X127.291 Y135.58 E0.01942
G1 X128.022 Y135.05 E0.03744
G1 X128.92 Y134.513 E0.05832
G1 X129.767 Y134.106 E0.07708
G1 X130.71 Y133.752 E0.09718
G1 X131.648 Y133.492 E0.1166
G1 X132.615 Y133.314 E0.13622
G1 X133.755 Y133.218 E0.15905
G1 X134.412 Y133.203 E0.17217
G1 X143.207 Y133.203 E0.34768
G1 X144.372 Y133.223 E0.37094
G1 X146.193 Y133.314 E0.40732
G1 X148.774 Y133.39 E0.45885
G1 X151.262 Y133.392 E0.5085
G1 X153.822 Y133.322 E0.55961
G1 X155.922 Y133.222 E0.60156
G1 X156.43 Y133.21 E0.6117
G1 X165.351 Y133.211 E0.78973
G1 X166.084 Y133.223 E0.80436
G1 X167.056 Y133.282 E0.82379
G1 X168.019 Y133.428 E0.84323
G1 X168.966 Y133.659 E0.86268
G1 X169.854 Y133.959 E0.88139
G1 X170.746 Y134.349 E0.90082
G1 X171.629 Y134.836 E0.92094
G1 X172.38 Y135.338 E0.93897
G1 X173.195 Y135.996 E0.95987
G1 X173.893 Y136.674 E0.97929
G1 X174.529 Y137.411 E0.99872
G1 X175.099 Y138.201 E1.01816
G1 X175.561 Y138.977 E1.03618
G1 X176.015 Y139.919 E1.05705
G1 X176.344 Y140.797 E1.07576
G1 X176.613 Y141.769 E1.09588
G1 X176.79 Y142.735 E1.11548
G1 X176.885 Y143.86 E1.13801
G1 X176.9 Y144.534 E1.15147
G1 X176.899 Y146.33 E1.18731
G1 X176.887 Y147.085 E1.20238
G1 X176.829 Y148.06 E1.22187
G1 X176.682 Y149.021 E1.24127
G1 X176.452 Y149.968 E1.26072
G1 X176.139 Y150.89 E1.28015
G1 X175.747 Y151.781 E1.29957
G1 X175.295 Y152.603 E1.31829
G1 X174.751 Y153.415 E1.3378
G1 X174.035 Y154.291 E1.36038
G1 X171.951 Y156.588 E1.42227
G1 X170.332 Y158.485 E1.47204
G1 X168.756 Y160.439 E1.52214
G1 X166.848 Y162.955 E1.58515
G1 X166.211 Y163.716 E1.60496
G1 X165.523 Y164.405 E1.62439
G1 X164.778 Y165.031 E1.64381
G1 X164.009 Y165.57 E1.66255
G1 X163.134 Y166.072 E1.68268
G1 X162.316 Y166.453 E1.70069
G1 X161.332 Y166.808 E1.72156
G1 X160.459 Y167.038 E1.73958
G1 X159.426 Y167.214 E1.76049
G1 X158.394 Y167.292 E1.78114
G1 X157.77 Y167.305 E1.7936
G1 X142.45 Y167.304 E2.09932
G1 X141.714 Y167.292 E2.11401
G1 X140.742 Y167.233 E2.13345
G1 X139.779 Y167.087 E2.15288
G1 X138.831 Y166.856 E2.17236
G1 X137.975 Y166.568 E2.19038
G1 X137.019 Y166.149 E2.21121
G1 X136.166 Y165.678 E2.23066
G1 X135.359 Y165.133 E2.25009
G1 X134.63 Y164.543 E2.2688
G1 X133.928 Y163.866 E2.28827
G1 X133.168 Y162.977 E2.31161
G1 X132.642 Y162.288 E2.32891
G1 X131.944 Y161.349 E2.35225
G1 X130.383 Y159.362 E2.40268
G1 X128.789 Y157.448 E2.45239
G1 X127.103 Y155.535 E2.50327
G1 X125.932 Y154.254 E2.53791
G1 X125.312 Y153.502 E2.55736
G1 X124.8 Y152.758 E2.57538
G1 X124.287 Y151.847 E2.59625
G1 X123.888 Y150.959 E2.61567
G1 X123.568 Y150.039 E2.63511
G1 X123.332 Y149.094 E2.65455
G1 X123.18 Y148.134 E2.67395
G1 X123.115 Y147.23 E2.69203
G1 X123.1 Y146.573 E2.70515
G1 X123.101 Y144.736 E2.74181
G1 X123.112 Y144.029 E2.75592
G1 X123.17 Y143.057 E2.77535
G1 X123.316 Y142.093 E2.79481
G1 X123.546 Y141.147 E2.81424
G1 X123.858 Y140.225 E2.83366
G1 X124.25 Y139.333 E2.8531
G1 X124.702 Y138.511 E2.87182
G1 X125.263 Y137.673 E2.89195
G1 X125.83 Y136.969 E2.90999
G1 X126.555 Y136.217 E2.93083
G0 F6000 X126.817 Y136.519
G1 F1200 X127.526 Y135.904 E2.94956
G1 X128.257 Y135.374 E2.96758
G1 X129.093 Y134.874 E2.98702
G1 X129.94 Y134.467 E3.00577
G1 X130.817 Y134.137 E3.02447
G1 X131.721 Y133.885 E3.0432
G1 X132.649 Y133.713 E3.06204
G1 X133.789 Y133.617 E3.08487
G1 X134.421 Y133.603 E3.09748
G1 X143.2 Y133.603 E3.27268
G1 X144.352 Y133.622 E3.29567
G1 X146.181 Y133.714 E3.33222
G1 X148.762 Y133.79 E3.38374
G1 X151.273 Y133.792 E3.43385
G1 X153.841 Y133.722 E3.48512
G1 X155.932 Y133.622 E3.5269
G1 X156.43 Y133.61 E3.53684
G1 X165.345 Y133.611 E3.71475
G1 X166.06 Y133.622 E3.72902
G1 X166.997 Y133.678 E3.74775
G1 X167.925 Y133.817 E3.76647
G1 X168.838 Y134.038 E3.78522
G1 X169.694 Y134.326 E3.80324
G1 X170.586 Y134.716 E3.82267
G1 X171.407 Y135.169 E3.84138
G1 X172.158 Y135.671 E3.85941
G1 X172.917 Y136.283 E3.87887
G1 X173.591 Y136.936 E3.8976
G1 X174.205 Y137.645 E3.91631
G1 X174.755 Y138.406 E3.93505
G1 X175.217 Y139.182 E3.95307
G1 X175.64 Y140.059 E3.9725
G1 X175.969 Y140.937 E3.99121
G1 X176.22 Y141.842 E4.00996
G1 X176.391 Y142.769 E4.02877
G1 X176.486 Y143.894 E4.0513
G1 X176.5 Y144.534 E4.06407
G1 X176.499 Y146.324 E4.0998
G1 X176.488 Y147.062 E4.11452
G1 X176.433 Y148 E4.13328
G1 X176.293 Y148.927 E4.15198
G1 X176.073 Y149.84 E4.17073
G1 X175.773 Y150.729 E4.18945
G1 X175.396 Y151.588 E4.20817
G1 X174.944 Y152.41 E4.22689
G1 X174.419 Y153.192 E4.24569
G1 X173.739 Y154.022 E4.2671
G1 X171.655 Y156.319 E4.32899
G1 X170.028 Y158.225 E4.379
G1 X168.437 Y160.197 E4.42957
G1 X166.529 Y162.713 E4.49258
G1 X165.928 Y163.434 E4.51131
G1 X165.266 Y164.099 E4.53004
G1 X164.548 Y164.703 E4.54876
G1 X163.779 Y165.242 E4.5675
G1 X162.965 Y165.709 E4.58623
G1 X162.147 Y166.09 E4.60424
G1 X161.23 Y166.421 E4.62369
G1 X160.357 Y166.651 E4.64171
G1 X159.396 Y166.815 E4.66117
G1 X158.386 Y166.892 E4.68138
G1 X157.77 Y166.905 E4.69368
G1 X142.456 Y166.904 E4.99928
G1 X141.738 Y166.893 E5.01361
G1 X140.801 Y166.837 E5.03234
G1 X139.873 Y166.698 E5.05107
G1 X138.959 Y166.477 E5.06984
G1 X138.103 Y166.189 E5.08786
G1 X137.212 Y165.799 E5.10727
G1 X136.389 Y165.346 E5.12602
G1 X135.611 Y164.822 E5.14474
G1 X134.882 Y164.232 E5.16345
G1 X134.232 Y163.606 E5.18146
G1 X133.486 Y162.734 E5.20436
G1 X132.963 Y162.049 E5.22156
G1 X132.265 Y161.11 E5.24491
G1 X130.698 Y159.115 E5.29553
G1 X129.096 Y157.192 E5.34548
G1 X127.403 Y155.271 E5.39658
G1 X126.24 Y153.999 E5.43097
G1 X125.642 Y153.275 E5.44971
G1 X125.13 Y152.531 E5.46774
G1 X124.652 Y151.683 E5.48716
G1 X124.266 Y150.827 E5.5059
G1 X123.956 Y149.941 E5.52463
G1 X123.727 Y149.031 E5.54336
G1 X123.579 Y148.105 E5.56207
G1 X123.515 Y147.221 E5.57976
G1 X123.5 Y146.573 E5.5927
G1 X123.501 Y144.742 E5.62924
G1 X123.511 Y144.052 E5.64301
G1 X123.566 Y143.116 E5.66172
G1 X123.705 Y142.187 E5.68046
G1 X123.925 Y141.275 E5.69919
G1 X124.224 Y140.386 E5.7179
G1 X124.601 Y139.526 E5.73664
G1 X125.053 Y138.704 E5.75536
G1 X125.575 Y137.924 E5.77409
G1 X126.142 Y137.22 E5.79213
G1 X126.817 Y136.519 E5.81155
G0 F6000 X127.08 Y136.821
G1 F1200 X127.761 Y136.228 E5.82957
G1 X128.492 Y135.698 E5.84759
G1 X129.267 Y135.234 E5.86562
G1 X130.081 Y134.841 E5.88366
G1 X130.925 Y134.522 E5.90166
G1 X131.795 Y134.278 E5.91969
G1 X132.683 Y134.112 E5.93772
G1 X133.823 Y134.016 E5.96055
G1 X134.43 Y134.003 E5.97267
G1 X143.193 Y134.003 E6.14754
G1 X144.335 Y134.022 E6.17034
G1 X145.177 Y134.058 E6.18715
G1 X146.169 Y134.114 E6.20698
G1 X148.75 Y134.19 E6.25851
G1 X151.284 Y134.192 E6.30908
G1 X153.86 Y134.122 E6.36051
G1 X155.942 Y134.022 E6.4021
G1 X156.43 Y134.01 E6.41184
G1 X165.339 Y134.011 E6.58963
G1 X166.037 Y134.021 E6.60356
G1 X166.939 Y134.074 E6.62159
G1 X167.832 Y134.206 E6.63961
G1 X168.71 Y134.417 E6.65763
G1 X169.566 Y134.705 E6.67565
G1 X170.393 Y135.067 E6.69367
G1 X171.185 Y135.502 E6.7117
G1 X171.936 Y136.004 E6.72973
G1 X172.639 Y136.571 E6.74775
G1 X173.289 Y137.198 E6.76577
G1 X173.881 Y137.88 E6.7838
G1 X174.411 Y138.611 E6.80181
G1 X174.873 Y139.387 E6.81984
G1 X175.266 Y140.2 E6.83786
G1 X175.584 Y141.045 E6.85588
G1 X175.827 Y141.915 E6.8739
G1 X175.992 Y142.803 E6.89193
G1 X176.087 Y143.928 E6.91446
G1 X176.1 Y144.534 E6.92655
G1 X176.099 Y146.318 E6.96215
G1 X176.089 Y147.039 E6.97654
G1 X176.037 Y147.941 E6.99457
G1 X175.904 Y148.834 E7.01259
G1 X175.694 Y149.713 E7.03063
G1 X175.407 Y150.569 E7.04864
G1 X175.045 Y151.396 E7.06666
G1 X174.611 Y152.188 E7.08468
G1 X174.109 Y152.939 E7.10271
G1 X173.443 Y153.753 E7.1237
G1 X171.359 Y156.05 E7.18559
G1 X169.724 Y157.965 E7.23584
G1 X168.118 Y159.955 E7.28687
G1 X166.221 Y162.457 E7.34953
G1 X165.644 Y163.152 E7.36756
G1 X165.008 Y163.793 E7.38558
G1 X164.318 Y164.376 E7.4036
G1 X163.579 Y164.895 E7.42163
G1 X162.796 Y165.346 E7.43966
G1 X161.978 Y165.727 E7.45767
G1 X161.128 Y166.034 E7.4757
G1 X160.255 Y166.264 E7.49372
G1 X159.365 Y166.416 E7.51174
G1 X158.377 Y166.492 E7.53151
G1 X157.77 Y166.505 E7.54363
G1 X142.462 Y166.504 E7.84911
G1 X141.761 Y166.494 E7.86311
G1 X140.859 Y166.441 E7.88114
G1 X139.966 Y166.309 E7.89915
G1 X139.087 Y166.098 E7.91719
G1 X138.231 Y165.81 E7.93521
G1 X137.404 Y165.448 E7.95323
G1 X136.612 Y165.014 E7.97125
G1 X135.862 Y164.511 E7.98927
G1 X135.159 Y163.944 E8.0073
G1 X134.509 Y163.318 E8.02531
G1 X133.804 Y162.491 E8.04699
G1 X133.284 Y161.811 E8.06408
G1 X132.58 Y160.863 E8.08764
G1 X131.013 Y158.868 E8.13827
G1 X129.403 Y156.936 E8.18845
G1 X127.703 Y155.007 E8.23976
G1 X126.548 Y153.744 E8.27392
G1 X125.972 Y153.048 E8.29195
G1 X125.46 Y152.304 E8.30997
G1 X125.016 Y151.518 E8.32799
G1 X124.643 Y150.695 E8.34602
G1 X124.344 Y149.843 E8.36404
G1 X124.122 Y148.967 E8.38207
G1 X123.978 Y148.076 E8.40008
G1 X123.915 Y147.212 E8.41737
G1 X123.9 Y146.573 E8.43013
G1 X123.901 Y144.747 E8.46657
G1 X123.91 Y144.075 E8.47998
G1 X123.962 Y143.174 E8.49799
G1 X124.094 Y142.28 E8.51602
G1 X124.304 Y141.402 E8.53404
G1 X124.591 Y140.546 E8.55205
G1 X124.952 Y139.718 E8.57008
G1 X125.386 Y138.926 E8.5881
G1 X125.887 Y138.175 E8.60612
G1 X126.454 Y137.471 E8.62416
G1 X127.08 Y136.821 E8.64217
G1 F1500 E2.14217
;MESH:Under_Score_drive_motor_mount_2.stl
G0 F6000 X134.514 Y143.538
G0 X134.514 Y144.617
G0 X142.328 Y146.475
G0 X142.9 Y146.903
;TYPE:WALL-INNER
G1 F1500 E8.64217
G1 F1200 X142.9 Y154.405 E8.79188
G1 F1176.5 X142.907 Y154.579 E8.79542
G0 F6000 X143.072 Y155.233
G0 X157.23 Y155.435
G0 X157.5 Y155.705
G1 F1200 X157.5 Y146.903 E8.97108
G1 X157.611 Y146.554 E8.97838
G1 X157.849 Y146.357 E8.98455
G1 X158.022 Y146.303 E8.98817
G1 X165.3 Y146.303 E9.13341
G1 X165.3 Y144.811 E9.16318
G1 X156.701 Y144.811 E9.33478
G1 X156.7 Y154.492 E9.52798
G1 X156.55 Y154.803 E9.53487
G1 F1004.2 X156.217 Y155.074 E9.54511
G1 F868 X143.9 Y155.08 E9.88492
G1 F1010.5 X143.45 Y154.803 E9.89745
G1 F1200 X143.3 Y154.492 E9.90434
G1 X143.3 Y144.803 E10.09769
G1 X134.7 Y144.803 E10.26931
G1 X134.7 Y146.303 E10.29925
G1 X141.9 Y146.303 E10.44293
G1 X142.149 Y146.357 E10.44802
G1 X142.388 Y146.553 E10.45419
G1 X142.5 Y146.903 E10.46152
G1 X142.5 Y155.705 E10.63717
G1 X143.043 Y155.705 E10.64801
G1 F1010.5 X143.9 Y155.63 E10.66839
G1 F868 X156.265 Y155.627 E11.00954
G1 F1004.2 X156.957 Y155.705 E11.02614
G1 F1200 X157.5 Y155.705 E11.03698
G0 F6000 X157.23 Y155.435
G0 X157.093 Y154.579
G1 F1179.4 X157.1 Y154.405 E11.04052
G1 F1200 X157.1 Y146.903 E11.19023
G0 F6000 X157.205 Y146.257
G1 F786.9 X157.638 Y145.898 E11.20734
G1 F827.6 X157.962 Y145.83 E11.21692
G1 F875.9 X164.827 Y145.83 E11.40461
G1 F879.1 X164.827 Y145.284 E11.41948
G1 F871.1 X157.866 Y145.288 E11.61084
G1 F823.3 X157.511 Y145.316 E11.6212
G1 F786.9 X157.206 Y145.316 E11.63048
G1 X157.205 Y146.257 E11.65912
G0 F6000 X157.2 Y146.257
G0 X156.928 Y155.233
G0 X156.318 Y155.334
G1 F1333.3 X157.14 Y155.334 E11.67388
G1 F1212.1 X157.093 Y154.579 E11.68882
G1 F1269.8 X156.829 Y155.049 E11.69899
G1 F1399.4 X156.318 Y155.334 E11.709
G0 F6000 X143.806 Y155.334
G1 F1399.4 X143.171 Y155.049 E11.72091
G1 F1266.5 X142.907 Y154.579 E11.73111
G1 F1209.1 X142.86 Y155.334 E11.74609
G1 F1329.6 X143.806 Y155.334 E11.76313
G0 F6000 X143.072 Y155.233
G0 X142.9 Y146.903
G1 F1200 X142.9 Y145.203 E11.79705
G1 X142.486 Y145.203 E11.80531
G1 F1010.5 X141.9 Y145.278 E11.81931
G1 F872.7 X135.175 Y145.278 E12.00385
G1 X135.175 Y145.828 E12.01894
G1 X141.9 Y145.828 E12.20347
G1 F1010.5 X142.315 Y145.993 E12.21405
G1 F1200 X142.714 Y146.32 E12.22435
G1 X142.9 Y146.903 E12.23656
G1 F1500 E5.73656
G0 F6000 X143.472 Y154.833
G0 X157.63 Y155.835
G0 X157.9 Y156.105
;TYPE:WALL-OUTER
G1 F1500 E12.23656
G1 F1200 X157.9 Y146.903 E12.4202
G1 X157.937 Y146.786 E12.42264
G1 X158.065 Y146.705 E12.42567
G1 X165.7 Y146.703 E12.57803
G1 X165.7 Y144.411 E12.62377
G1 X156.301 Y144.411 E12.81134
G1 X156.298 Y154.44 E13.01148
G1 X156.25 Y154.538 E13.01366
G1 X156.135 Y154.603 E13.01629
G1 X143.9 Y154.605 E13.26045
G1 X143.75 Y154.538 E13.26373
G1 X143.702 Y154.44 E13.26591
G1 X143.7 Y144.403 E13.46621
G1 X134.3 Y144.403 E13.6538
G1 X134.3 Y146.703 E13.6997
G1 X141.961 Y146.703 E13.85258
G1 X142.063 Y146.786 E13.8552
G1 X142.1 Y146.903 E13.85765
G1 X142.1 Y156.105 E14.04129
G1 X157.9 Y156.105 E14.35659
G0 F6000 X157.63 Y155.835
G0 X143.472 Y154.833
G0 X142.982 Y145.121
G0 X142.519 Y145.303
G0 X142.519 Y145.567
;TYPE:SKIN
G1 F952.4 X142.457 Y145.567 E14.35815
G1 X142.425 Y145.621 E14.35973
G1 X142.457 Y145.675 E14.36131
G1 X142.519 Y145.675 E14.36287
G1 X142.551 Y145.621 E14.36445
G1 F1500 E7.86445
;MESH:NONMESH
G0 F300 X142.551 Y145.621 Z0.24
G0 F6000 X142.8 Y145.621
G0 X134.514 Y144.617
G0 X134.514 Y143.538
G0 X127.08 Y136.821
;TIME_ELAPSED:46.502435
;LAYER:1
M106 S85
;TYPE:SKIRT
G1 F1500 E14.36445
G1 F1200 X127.761 Y136.228 E14.38247
G1 X128.492 Y135.698 E14.40049
G1 X129.267 Y135.234 E14.41851
G1 X130.081 Y134.841 E14.43655
G1 X130.925 Y134.522 E14.45456
G1 X131.795 Y134.278 E14.47259
G1 X132.683 Y134.112 E14.49062
G1 X133.823 Y134.016 E14.51345
G1 X134.43 Y134.003 E14.52556
G1 X143.193 Y134.003 E14.70044
G1 X144.335 Y134.022 E14.72323
G1 X145.177 Y134.058 E14.74005
G1 X146.169 Y134.114 E14.75988
G1 X148.75 Y134.19 E14.81141
G1 X151.284 Y134.192 E14.86197
G1 X153.86 Y134.122 E14.9134
G1 X155.942 Y134.022 E14.955
G1 X156.43 Y134.01 E14.96474
G1 X165.339 Y134.011 E15.14253
G1 X166.037 Y134.021 E15.15646
G1 X166.939 Y134.074 E15.17449
G1 X167.832 Y134.206 E15.1925
G1 X168.71 Y134.417 E15.21052
G1 X169.566 Y134.705 E15.22855
G1 X170.393 Y135.067 E15.24656
G1 X171.185 Y135.502 E15.2646
G1 X171.936 Y136.004 E15.28262
G1 X172.639 Y136.571 E15.30065
G1 X173.289 Y137.198 E15.31867
G1 X173.881 Y137.88 E15.33669
G1 X174.411 Y138.611 E15.35471
G1 X174.873 Y139.387 E15.37273
G1 X175.266 Y140.2 E15.39075
G1 X175.584 Y141.045 E15.40877
G1 X175.827 Y141.915 E15.4268
G1 X175.992 Y142.803 E15.44482
G1 X176.087 Y143.928 E15.46735
G1 X176.1 Y144.534 E15.47945
G1 X176.099 Y146.318 E15.51505
G1 X176.089 Y147.039 E15.52944
G1 X176.037 Y147.941 E15.54747
G1 X175.904 Y148.834 E15.56549
G1 X175.694 Y149.713 E15.58352
G1 X175.407 Y150.569 E15.60154
G1 X175.045 Y151.396 E15.61955
G1 X174.611 Y152.188 E15.63758
G1 X174.109 Y152.939 E15.6556
G1 X173.443 Y153.753 E15.67659
G1 X171.359 Y156.05 E15.73849
G1 X169.724 Y157.965 E15.78874
G1 X168.118 Y159.955 E15.83977
G1 X166.221 Y162.457 E15.90243
G1 X165.644 Y163.152 E15.92045
G1 X165.008 Y163.793 E15.93847
G1 X164.318 Y164.376 E15.9565
G1 X163.579 Y164.895 E15.97452
G1 X162.796 Y165.346 E15.99255
G1 X161.978 Y165.727 E16.01056
G1 X161.128 Y166.034 E16.0286
G1 X160.255 Y166.264 E16.04661
G1 X159.365 Y166.416 E16.06463
G1 X158.377 Y166.492 E16.08441
G1 X157.77 Y166.505 E16.09652
G1 X142.462 Y166.504 E16.40201
G1 X141.761 Y166.494 E16.416
G1 X140.859 Y166.441 E16.43403
G1 X139.966 Y166.309 E16.45205
G1 X139.087 Y166.098 E16.47009
G1 X138.231 Y165.81 E16.48811
G1 X137.404 Y165.448 E16.50612
G1 X136.612 Y165.014 E16.52415
G1 X135.862 Y164.511 E16.54217
G1 X135.159 Y163.944 E16.56019
G1 X134.509 Y163.318 E16.5782
G1 X133.804 Y162.491 E16.59989
G1 X133.284 Y161.811 E16.61697
G1 X132.58 Y160.863 E16.64054
G1 X131.013 Y158.868 E16.69116
G1 X129.403 Y156.936 E16.74135
