;FLAVOR:Marlin
;TIME:424
;Filament used: 0.638106m
;Layer height: 0.3
;MINX:-23.82
;MINY:-13.917
;MINZ:0.3
;MAXX:23.82
;MAXY:14.02
;MAXZ:9.9
;Generated with Cura_SteamEngine 5.4.0
M82 ;absolute extrusion mode
M140 S0
M104 S200 T0
M104 S0 T1
M107
G90
G28
M132 X Y Z A B
G1 Z50.00 F400
G161 X Y F3300
M6 T0
M907 X100 Y100 Z40 A80 B20
M108 T0
G1 Z.20 F400
G92 E0
G92 E0
G1 F1800 E-1.3
;LAYER_COUNT:33
;LAYER:0
M106 S255
G0 F3000 X-0.003 Y-11 Z0.3
;TYPE:SKIRT
G1 F1800 E0
G1 F1500 X0.703 Y-11.76 E0.06831
G1 X1.581 Y-12.478 E0.14301
G1 X2.054 Y-12.782 E0.18003
G1 X3.443 Y-13.438 E0.28119
G1 X3.972 Y-13.609 E0.31781
G1 X5.198 Y-13.847 E0.40005
G1 X5.996 Y-13.91 E0.45277
G1 X16.815 Y-13.848 E1.16527
G1 X17.424 Y-13.749 E1.2059
G1 X18.607 Y-13.417 E1.28681
G1 X19.226 Y-13.16 E1.33095
G1 X20.092 Y-12.687 E1.39594
G1 X20.877 Y-12.121 E1.45967
G1 X21.69 Y-11.366 E1.53273
G1 X22.33 Y-10.575 E1.59974
G1 X22.987 Y-9.49 E1.68327
G1 X23.254 Y-8.888 E1.72664
G1 X23.61 Y-7.745 E1.80548
G1 X23.716 Y-7.186 E1.84295
G1 X23.82 Y-5.962 E1.92385
G1 X23.799 Y-2.915 E2.12451
G1 X23.61 Y-1.581 E2.21324
G1 X23.32 Y-.579 E2.28193
G1 X23.104 Y-0.049 E2.31963
G1 X22.549 Y0.96 E2.39546
G1 X21.978 Y1.738 E2.45902
G1 X21.297 Y2.467 E2.52471
G1 X20.419 Y3.185 E2.59941
G1 X19.946 Y3.489 E2.63643
G1 X18.598 Y4.128 E2.73468
G1 X17.829 Y4.369 E2.78775
G1 X16.98 Y4.541 E2.84479
G1 X16.548 Y4.587 E2.8734
G1 X16.005 Y4.592 E2.90916
G1 X15.994 Y6.541 E3.03752
G1 X15.81 Y7.819 E3.12255
G1 X15.52 Y8.821 E3.19124
G1 X15.304 Y9.351 E3.22893
G1 X14.749 Y10.36 E3.30477
G1 X14.178 Y11.138 E3.36832
G1 X13.497 Y11.867 E3.43402
G1 X12.619 Y12.585 E3.50871
G1 X12.146 Y12.889 E3.54574
G1 X10.757 Y13.545 E3.6469
G1 X10.228 Y13.716 E3.68351
G1 X9.165 Y13.93 E3.75492
G1 X8.089 Y14.02 E3.82603
G1 X-9.014 Y13.955 E4.95236
G1 X-9.624 Y13.856 E4.99306
G1 X-10.807 Y13.525 E5.07395
G1 X-11.334 Y13.311 E5.11141
G1 X-12.355 Y12.754 E5.188
G1 X-13.138 Y12.178 E5.25202
G1 X-13.867 Y11.497 E5.31772
G1 X-14.585 Y10.619 E5.39241
G1 X-14.889 Y10.146 E5.42944
G1 X-15.528 Y8.798 E5.52768
G1 X-15.769 Y8.029 E5.58075
G1 X-15.941 Y7.185 E5.63747
G1 X-15.981 Y6.854 E5.65943
G1 X-16 Y4.6 E5.80787
G1 X-16.343 Y4.594 E5.83046
G1 X-17.619 Y4.41 E5.91536
G1 X-18.621 Y4.12 E5.98406
G1 X-19.151 Y3.904 E6.02175
G1 X-20.2 Y3.326 E6.10062
G1 X-20.743 Y2.938 E6.14457
G1 X-21.69 Y2.073 E6.22904
G1 X-22.33 Y1.282 E6.29605
G1 X-22.987 Y0.197 E6.37958
G1 X-23.254 Y-.405 E6.42295
G1 X-23.61 Y-1.548 E6.50179
G1 X-23.716 Y-2.107 E6.53925
G1 X-23.82 Y-3.331 E6.62015
G1 X-23.799 Y-6.385 E6.82128
G1 X-23.61 Y-7.719 E6.91001
G1 X-23.32 Y-8.721 E6.9787
G1 X-23.104 Y-9.251 E7.01639
G1 X-22.549 Y-10.26 E7.09223
G1 X-21.978 Y-11.038 E7.15578
G1 X-21.297 Y-11.767 E7.22148
G1 X-20.419 Y-12.485 E7.29617
G1 X-19.946 Y-12.789 E7.3332
G1 X-18.557 Y-13.445 E7.43436
G1 X-18.028 Y-13.616 E7.47097
G1 X-16.802 Y-13.854 E7.55322
G1 X-16.004 Y-13.917 E7.60593
G1 X-5.185 Y-13.855 E8.31843
G1 X-4.576 Y-13.756 E8.35906
G1 X-3.393 Y-13.425 E8.43996
G1 X-2.866 Y-13.211 E8.47742
G1 X-1.845 Y-12.654 E8.55401
G1 X-1.062 Y-12.078 E8.61803
G1 X-.333 Y-11.397 E8.68372
G1 X-0.003 Y-11 E8.71772
G0 F3000 X0.013 Y-10.21
G1 F1500 X0.373 Y-10.703 E8.75792
G1 X1.054 Y-11.432 E8.82362
G1 X1.841 Y-12.074 E8.8905
G1 X2.314 Y-12.378 E8.92753
G1 X3.591 Y-12.981 E9.02053
G1 X4.12 Y-13.152 E9.05715
G1 X5.236 Y-13.368 E9.132
G1 X6.034 Y-13.431 E9.18472
G1 X16.738 Y-13.374 E9.88964
G1 X17.347 Y-13.275 E9.93028
G1 X18.425 Y-12.973 E10.004
G1 X18.997 Y-12.738 E10.04472
G1 X19.813 Y-12.296 E10.10584
G1 X20.552 Y-11.768 E10.16565
G1 X21.318 Y-11.062 E10.23425
G1 X21.92 Y-10.325 E10.29692
G1 X22.548 Y-9.295 E10.37637
G1 X22.815 Y-8.693 E10.41974
G1 X23.138 Y-7.656 E10.49126
G1 X23.244 Y-7.097 E10.52873
G1 X23.34 Y-5.965 E10.60355
G1 X23.319 Y-2.918 E10.80421
G1 X23.149 Y-1.714 E10.88429
G1 X22.875 Y-.76 E10.94966
G1 X22.659 Y-.23 E10.98735
G1 X22.161 Y0.677 E11.05549
G1 X21.627 Y1.41 E11.11521
G1 X20.946 Y2.139 E11.18091
G1 X20.159 Y2.781 E11.24779
G1 X19.686 Y3.085 E11.28482
G1 X18.393 Y3.694 E11.37894
G1 X17.733 Y3.899 E11.42446
G1 X16.927 Y4.064 E11.47864
G1 X16.543 Y4.107 E11.50408
G1 X15.526 Y4.117 E11.57106
G1 X15.519 Y6.474 E11.72628
G1 X15.349 Y7.686 E11.80688
G1 X15.075 Y8.64 E11.87225
G1 X14.859 Y9.17 E11.90994
G1 X14.361 Y10.077 E11.97808
G1 X13.827 Y10.81 E12.0378
G1 X13.146 Y11.539 E12.1035
G1 X12.359 Y12.181 E12.17038
G1 X11.886 Y12.485 E12.20741
G1 X10.609 Y13.088 E12.30041
G1 X10.08 Y13.259 E12.33703
G1 X9.072 Y13.459 E12.4047
G1 X8.091 Y13.54 E12.46952
G1 X-8.937 Y13.481 E13.59091
G1 X-9.547 Y13.382 E13.63161
G1 X-10.626 Y13.08 E13.7054
G1 X-11.153 Y12.866 E13.74286
G1 X-12.124 Y12.333 E13.8158
G1 X-12.81 Y11.827 E13.87194
G1 X-13.539 Y11.146 E13.93763
G1 X-14.181 Y10.359 E14.00452
G1 X-14.485 Y9.886 E14.04155
G1 X-15.094 Y8.593 E14.13567
G1 X-15.299 Y7.933 E14.18118
G1 X-15.464 Y7.127 E14.23536
G1 X-15.504 Y6.796 E14.25732
G1 X-15.524 Y4.123 E14.43336
G1 X-16.276 Y4.119 E14.48288
G1 X-17.486 Y3.949 E14.56335
G1 X-18.44 Y3.675 E14.62871
G1 X-18.97 Y3.459 E14.6664
G1 X-19.921 Y2.935 E14.73791
G1 X-20.464 Y2.547 E14.78186
G1 X-21.318 Y1.769 E14.85794
G1 X-21.92 Y1.032 E14.92061
G1 X-22.548 Y0.002 E15.00005
G1 X-22.815 Y-.6 E15.04342
G1 X-23.138 Y-1.637 E15.11495
G1 X-23.244 Y-2.196 E15.15242
G1 X-23.34 Y-3.328 E15.22723
G1 X-23.319 Y-6.382 E15.42836
G1 X-23.149 Y-7.586 E15.50843
G1 X-22.875 Y-8.54 E15.5738
G1 X-22.659 Y-9.07 E15.61149
G1 X-22.161 Y-9.977 E15.67963
G1 X-21.627 Y-10.71 E15.73936
G1 X-20.946 Y-11.439 E15.80505
G1 X-20.159 Y-12.081 E15.87194
G1 X-19.686 Y-12.385 E15.90897
G1 X-18.409 Y-12.988 E16.00197
G1 X-17.88 Y-13.159 E16.03858
G1 X-16.764 Y-13.375 E16.11344
G1 X-15.966 Y-13.438 E16.16615
G1 X-5.262 Y-13.381 E16.87108
G1 X-4.653 Y-13.282 E16.91171
G1 X-3.574 Y-12.98 E16.9855
G1 X-3.047 Y-12.766 E17.02295
G1 X-2.076 Y-12.233 E17.0959
G1 X-1.39 Y-11.727 E17.15204
G1 X-.661 Y-11.046 E17.21773
G1 X-0.051 Y-10.302 E17.28109
G1 X0.013 Y-10.21 E17.28847
G0 F3000 X0.001 Y-9.28
G1 F1500 X0.228 Y-9.689 E17.31928
G1 X0.724 Y-10.375 E17.37503
G1 X1.405 Y-11.104 E17.44072
G1 X2.101 Y-11.67 E17.4998
G1 X2.574 Y-11.974 E17.53683
G1 X3.739 Y-12.524 E17.62167
G1 X4.268 Y-12.695 E17.65828
G1 X5.274 Y-12.889 E17.72575
G1 X6.072 Y-12.952 E17.77847
G1 X16.661 Y-12.9 E18.47582
G1 X17.27 Y-12.801 E18.51645
G1 X18.245 Y-12.528 E18.58313
G1 X18.77 Y-12.315 E18.62044
G1 X19.534 Y-11.905 E18.67754
G1 X20.273 Y-11.377 E18.73735
G1 X20.948 Y-10.756 E18.79775
G1 X21.511 Y-10.074 E18.85599
G1 X22.109 Y-9.1 E18.93126
G1 X22.376 Y-8.498 E18.97463
G1 X22.666 Y-7.567 E19.03885
G1 X22.772 Y-7.008 E19.07632
G1 X22.86 Y-5.968 E19.14505
G1 X22.839 Y-2.921 E19.34572
G1 X22.687 Y-1.845 E19.41728
G1 X22.43 Y-.941 E19.47917
G1 X22.214 Y-.411 E19.51686
G1 X21.772 Y0.396 E19.57746
G1 X21.276 Y1.082 E19.6332
G1 X20.595 Y1.811 E19.6989
G1 X19.899 Y2.377 E19.75798
G1 X19.426 Y2.681 E19.79501
G1 X18.249 Y3.236 E19.8807
G1 X17.636 Y3.429 E19.92303
G1 X16.869 Y3.587 E19.9746
G1 X16.538 Y3.627 E19.99655
G1 X15.048 Y3.642 E20.09468
G1 X15.039 Y6.472 E20.28105
G1 X14.887 Y7.555 E20.35307
G1 X14.63 Y8.459 E20.41497
G1 X14.414 Y8.989 E20.45266
G1 X13.972 Y9.796 E20.51325
G1 X13.476 Y10.482 E20.569
G1 X12.795 Y11.211 E20.6347
G1 X12.099 Y11.777 E20.69377
G1 X11.626 Y12.081 E20.7308
G1 X10.461 Y12.631 E20.81564
G1 X9.932 Y12.802 E20.85226
G1 X8.98 Y12.988 E20.91614
G1 X8.093 Y13.06 E20.97474
G1 X-8.86 Y13.007 E22.09119
G1 X-9.47 Y12.908 E22.13188
G1 X-10.445 Y12.635 E22.19856
G1 X-10.972 Y12.421 E22.23602
G1 X-11.84 Y11.946 E22.30118
G1 X-12.482 Y11.476 E22.35358
G1 X-13.211 Y10.795 E22.41928
G1 X-13.777 Y10.099 E22.47835
G1 X-14.081 Y9.626 E22.51538
G1 X-14.636 Y8.449 E22.60108
G1 X-14.829 Y7.836 E22.6434
G1 X-14.987 Y7.069 E22.69497
G1 X-15.027 Y6.738 E22.71693
G1 X-15.047 Y3.645 E22.92062
G1 X-16.274 Y3.639 E23.00143
G1 X-17.355 Y3.487 E23.07332
G1 X-18.259 Y3.23 E23.13521
G1 X-18.789 Y3.014 E23.1729
G1 X-19.642 Y2.544 E23.23704
G1 X-20.185 Y2.156 E23.28099
G1 X-20.948 Y1.463 E23.34887
G1 X-21.511 Y0.781 E23.40711
G1 X-22.109 Y-.193 E23.48237
G1 X-22.376 Y-.795 E23.52574
G1 X-22.666 Y-1.726 E23.58996
G1 X-22.772 Y-2.285 E23.62743
G1 X-22.86 Y-3.325 E23.69616
G1 X-22.839 Y-6.379 E23.89729
G1 X-22.687 Y-7.455 E23.96885
G1 X-22.43 Y-8.359 E24.03075
G1 X-22.214 Y-8.889 E24.06844
G1 X-21.772 Y-9.696 E24.12903
G1 X-21.276 Y-10.382 E24.18478
G1 X-20.595 Y-11.111 E24.25048
G1 X-19.899 Y-11.677 E24.30955
G1 X-19.426 Y-11.981 E24.34658
G1 X-18.261 Y-12.531 E24.43142
G1 X-17.732 Y-12.702 E24.46804
G1 X-16.726 Y-12.896 E24.53551
G1 X-15.928 Y-12.959 E24.58822
G1 X-5.339 Y-12.907 E25.28557
G1 X-4.73 Y-12.808 E25.3262
G1 X-3.755 Y-12.535 E25.39288
G1 X-3.228 Y-12.321 E25.43034
G1 X-2.36 Y-11.846 E25.4955
G1 X-1.718 Y-11.376 E25.5479
G1 X-.989 Y-10.695 E25.61359
G1 X-.423 Y-9.999 E25.67267
G1 X-.119 Y-9.526 E25.7097
G1 X0.001 Y-9.28 E25.72773
G1 F1800 E24.42773
G0 F3000 X0.004 Y-8.138
G1 F1800 E25.72773
G1 F1500 X0.231 Y-8.701 E25.7677
G1 X0.618 Y-9.409 E25.82084
G1 X1.075 Y-10.047 E25.87252
G1 X1.756 Y-10.776 E25.93822
G1 X2.361 Y-11.266 E25.98949
G1 X2.834 Y-11.57 E26.02652
G1 X3.887 Y-12.067 E26.1032
G1 X4.416 Y-12.238 E26.13981
G1 X5.312 Y-12.41 E26.19989
G1 X6.11 Y-12.473 E26.25261
G1 X16.584 Y-12.426 E26.94238
G1 X17.193 Y-12.327 E26.98301
G1 X18.067 Y-12.082 E27.04279
G1 X18.543 Y-11.892 E27.07654
G1 X19.307 Y-11.482 E27.13364
G1 X19.95 Y-11.022 E27.18571
G1 X20.58 Y-10.448 E27.24183
G1 X21.103 Y-9.822 E27.29555
G1 X21.67 Y-8.905 E27.36655
G1 X21.937 Y-8.303 E27.40992
G1 X22.194 Y-7.478 E27.46683
G1 X22.3 Y-6.919 E27.5043
G1 X22.38 Y-5.971 E27.56695
G1 X22.359 Y-2.924 E27.76762
G1 X22.225 Y-1.975 E27.83073
G1 X21.985 Y-1.122 E27.88909
G1 X21.769 Y-.592 E27.92678
G1 X21.382 Y0.116 E27.97991
G1 X20.925 Y0.754 E28.0316
G1 X20.244 Y1.483 E28.09729
G1 X19.639 Y1.973 E28.14856
G1 X19.166 Y2.277 E28.18559
G1 X18.046 Y2.801 E28.26702
G1 X17.538 Y2.959 E28.30206
G1 X16.811 Y3.11 E28.35096
G1 X16.48 Y3.15 E28.37291
G1 X14.57 Y3.166 E28.4987
G1 X14.559 Y6.47 E28.71629
G1 X14.425 Y7.425 E28.7798
G1 X14.185 Y8.278 E28.83815
G1 X13.969 Y8.808 E28.87584
G1 X13.582 Y9.516 E28.92898
G1 X13.125 Y10.154 E28.98066
G1 X12.444 Y10.883 E29.04636
G1 X11.839 Y11.373 E29.09763
G1 X11.366 Y11.677 E29.13466
G1 X10.313 Y12.174 E29.21134
G1 X9.784 Y12.345 E29.24795
G1 X8.889 Y12.517 E29.30797
G1 X8.094 Y12.58 E29.36049
G1 X-8.783 Y12.533 E30.47193
G1 X-9.393 Y12.434 E30.51262
G1 X-10.267 Y12.189 E30.5724
G1 X-10.743 Y11.999 E30.60615
G1 X-11.558 Y11.557 E30.66721
G1 X-12.154 Y11.125 E30.71569
G1 X-12.883 Y10.444 E30.78138
G1 X-13.373 Y9.839 E30.83265
G1 X-13.677 Y9.366 E30.86968
G1 X-14.201 Y8.246 E30.95111
G1 X-14.359 Y7.738 E30.98615
G1 X-14.51 Y7.011 E31.03505
G1 X-14.55 Y6.68 E31.057
G1 X-14.57 Y3.168 E31.28829
G1 X-16.271 Y3.159 E31.40031
G1 X-17.225 Y3.025 E31.46375
G1 X-18.078 Y2.785 E31.52211
G1 X-18.608 Y2.569 E31.5598
G1 X-19.363 Y2.153 E31.61657
G1 X-19.906 Y1.765 E31.66052
G1 X-20.58 Y1.155 E31.72038
G1 X-21.103 Y0.529 E31.7741
G1 X-21.67 Y-.388 E31.8451
G1 X-21.937 Y-.99 E31.88847
G1 X-22.194 Y-1.815 E31.94538
G1 X-22.3 Y-2.374 E31.98285
G1 X-22.38 Y-3.322 E32.0455
G1 X-22.359 Y-6.376 E32.24663
G1 X-22.225 Y-7.325 E32.30974
G1 X-21.985 Y-8.178 E32.3681
G1 X-21.769 Y-8.708 E32.40579
G1 X-21.382 Y-9.416 E32.45892
G1 X-20.925 Y-10.054 E32.51061
G1 X-20.244 Y-10.783 E32.5763
G1 X-19.639 Y-11.273 E32.62757
G1 X-19.166 Y-11.577 E32.6646
G1 X-18.113 Y-12.074 E32.74128
G1 X-17.584 Y-12.245 E32.7779
G1 X-16.688 Y-12.417 E32.83798
G1 X-15.89 Y-12.48 E32.8907
G1 X-5.416 Y-12.433 E33.58047
G1 X-4.807 Y-12.334 E33.6211
G1 X-3.933 Y-12.089 E33.68088
G1 X-3.457 Y-11.899 E33.71463
G1 X-2.642 Y-11.457 E33.77569
G1 X-2.046 Y-11.025 E33.82416
G1 X-1.317 Y-10.344 E33.88986
G1 X-.827 Y-9.739 E33.94113
G1 X-.523 Y-9.266 E33.97816
G1 X0.004 Y-8.138 E34.06015
G1 F1800 E32.76015
G0 F3000 X0.107 Y-1.8
G1 F1800 E34.06015
G1 F1500 X0.121 Y-6.361 E34.36052
G1 X0.238 Y-7.19 E34.41565
G1 X0.46 Y-7.99 E34.47033
G1 X0.676 Y-8.52 E34.50802
G1 X1.038 Y-9.177 E34.55742
G1 X1.427 Y-9.721 E34.60146
G1 X2.059 Y-10.404 E34.66274
G1 X2.621 Y-10.862 E34.71048
G1 X3.094 Y-11.166 E34.74751
G1 X4.035 Y-11.61 E34.81603
G1 X4.564 Y-11.781 E34.85264
G1 X5.351 Y-11.932 E34.90542
G1 X6.108 Y-11.993 E34.95543
G1 X16.507 Y-11.952 E35.64026
G1 X17.116 Y-11.853 E35.6809
G1 X17.889 Y-11.636 E35.73377
G1 X18.365 Y-11.446 E35.76752
G1 X19.078 Y-11.06 E35.82092
G1 X19.627 Y-10.667 E35.86538
G1 X20.257 Y-10.093 E35.92151
G1 X20.696 Y-9.568 E35.96657
G1 X21.232 Y-8.709 E36.03325
G1 X21.479 Y-8.158 E36.07302
G1 X21.722 Y-7.389 E36.12613
G1 X21.828 Y-6.83 E36.1636
G1 X21.9 Y-5.974 E36.22017
G1 X21.879 Y-2.927 E36.42083
G1 X21.762 Y-2.103 E36.47564
G1 X21.54 Y-1.303 E36.53032
G1 X21.324 Y-.773 E36.56801
G1 X20.962 Y-.116 E36.61741
G1 X20.573 Y0.428 E36.66145
G1 X19.941 Y1.111 E36.72273
G1 X19.379 Y1.569 E36.77048
G1 X18.906 Y1.873 E36.8075
G1 X17.901 Y2.343 E36.88057
G1 X17.439 Y2.489 E36.91248
G1 X16.753 Y2.633 E36.95864
G1 X16.422 Y2.673 E36.98059
G1 X14.092 Y2.689 E37.13404
G1 X14.079 Y6.468 E37.38291
G1 X13.962 Y7.297 E37.43804
G1 X13.74 Y8.097 E37.49272
G1 X13.524 Y8.627 E37.53041
G1 X13.162 Y9.284 E37.57981
G1 X12.773 Y9.828 E37.62385
G1 X12.141 Y10.511 E37.68513
G1 X11.579 Y10.969 E37.73288
G1 X11.106 Y11.273 E37.7699
G1 X10.165 Y11.717 E37.83843
G1 X9.636 Y11.888 E37.87504
G1 X8.85 Y12.039 E37.92775
G1 X8.095 Y12.1 E37.97763
G1 X-8.706 Y12.059 E39.08406
G1 X-9.316 Y11.96 E39.12476
G1 X-10.089 Y11.743 E39.17763
G1 X-10.565 Y11.553 E39.21139
G1 X-11.278 Y11.167 E39.26478
G1 X-11.828 Y10.773 E39.30933
G1 X-12.511 Y10.141 E39.37062
G1 X-12.969 Y9.579 E39.41836
G1 X-13.273 Y9.106 E39.45539
G1 X-13.743 Y8.101 E39.52845
G1 X-13.889 Y7.639 E39.56036
G1 X-14.033 Y6.953 E39.60652
G1 X-14.073 Y6.622 E39.62848
G1 X-14.092 Y2.69 E39.88742
G1 X-16.269 Y2.679 E40.03079
G1 X-17.097 Y2.562 E40.08586
G1 X-17.897 Y2.34 E40.14054
G1 X-18.427 Y2.124 E40.17823
G1 X-19.084 Y1.762 E40.22763
G1 X-19.627 Y1.374 E40.27158
G1 X-20.257 Y0.8 E40.3277
G1 X-20.696 Y0.275 E40.37277
G1 X-21.232 Y-.584 E40.43945
G1 X-21.479 Y-1.135 E40.47922
G1 X-21.722 Y-1.904 E40.53233
G1 X-21.828 Y-2.463 E40.5698
G1 X-21.9 Y-3.319 E40.62637
G1 X-21.879 Y-6.373 E40.82749
G1 X-21.762 Y-7.197 E40.8823
G1 X-21.54 Y-7.997 E40.93698
G1 X-21.324 Y-8.527 E40.97467
G1 X-20.962 Y-9.184 E41.02407
G1 X-20.573 Y-9.728 E41.06811
G1 X-19.941 Y-10.411 E41.12939
G1 X-19.379 Y-10.869 E41.17713
G1 X-18.906 Y-11.173 E41.21416
G1 X-17.965 Y-11.617 E41.28268
G1 X-17.436 Y-11.788 E41.3193
G1 X-16.649 Y-11.939 E41.37207
G1 X-15.892 Y-12 E41.42208
G1 X-5.493 Y-11.959 E42.10692
G1 X-4.884 Y-11.86 E42.14755
G1 X-4.111 Y-11.643 E42.20042
G1 X-3.635 Y-11.453 E42.23417
G1 X-2.922 Y-11.067 E42.28757
G1 X-2.372 Y-10.673 E42.33212
G1 X-1.689 Y-10.041 E42.3934
G1 X-1.231 Y-9.479 E42.44115
G1 X-.927 Y-9.006 E42.47818
G1 X-.457 Y-8.001 E42.55124
G1 X-.311 Y-7.539 E42.58315
G1 X-.167 Y-6.853 E42.62931
G1 X-.127 Y-6.522 E42.65127
G1 X-.107 Y-1.8 E42.96224
G1 X0.107 Y-1.8 E42.97633
G0 F3000 X0.585 Y-1.32
G1 F1500 X0.601 Y-6.359 E43.30818
G1 X0.701 Y-7.063 E43.355
G1 X0.905 Y-7.809 E43.40593
G1 X1.121 Y-8.339 E43.44362
G1 X1.43 Y-8.9 E43.4858
G1 X1.781 Y-9.397 E43.52587
G1 X2.363 Y-10.033 E43.58265
G1 X2.881 Y-10.458 E43.62677
G1 X3.354 Y-10.762 E43.6638
G1 X4.183 Y-11.153 E43.72416
G1 X4.712 Y-11.324 E43.76077
G1 X5.39 Y-11.454 E43.80624
G1 X6.106 Y-11.513 E43.85355
G1 X16.505 Y-11.472 E44.53838
G1 X16.988 Y-11.39 E44.57064
G1 X17.711 Y-11.19 E44.62005
G1 X18.187 Y-11 E44.6538
G1 X18.801 Y-10.668 E44.69976
G1 X19.304 Y-10.312 E44.74035
G1 X19.934 Y-9.738 E44.79647
G1 X20.29 Y-9.312 E44.83303
G1 X20.795 Y-8.511 E44.89539
G1 X21.021 Y-8.013 E44.93141
G1 X21.264 Y-7.244 E44.98452
G1 X21.356 Y-6.743 E45.01806
G1 X21.42 Y-5.977 E45.06868
G1 X21.399 Y-2.93 E45.26935
G1 X21.299 Y-2.23 E45.31592
G1 X21.095 Y-1.484 E45.36685
G1 X20.879 Y-.954 E45.40454
G1 X20.57 Y-.393 E45.44672
G1 X20.219 Y0.104 E45.48679
G1 X19.637 Y0.74 E45.54356
G1 X19.119 Y1.165 E45.58768
G1 X18.646 Y1.469 E45.62471
G1 X17.756 Y1.885 E45.68941
