;FLAVOR:Marlin
;TIME:1501
;Filament used: 0.514385m
;Layer height: 0.12
;MINX:126.297
;MINY:136.2
;MINZ:0.12
;MAXX:173.703
;MAXY:163.9
;MAXZ:9.96
;Generated with Cura_SteamEngine 5.4.0
M140 S60
M105
M190 S60
M104 S200
M105
M109 S200
M82 ;absolute extrusion mode
M201 X500.00 Y500.00 Z100.00 E5000.00 ;Setup machine max acceleration
M203 X500.00 Y500.00 Z10.00 E50.00 ;Setup machine max feedrate
M204 P500.00 R1000.00 T500.00 ;Setup Print/Retract/Travel acceleration
M205 X8.00 Y8.00 Z0.40 E5.00 ;Setup Jerk
M220 S100 ;Reset Feedrate
M221 S100 ;Reset Flowrate

G28 ;Home

G92 E0 ;Reset Extruder
G1 Z2.0 F3000 ;Move Z Axis up
G1 X10.1 Y20 Z0.28 F5000.0 ;Move to start position
G1 X10.1 Y200.0 Z0.28 F1500.0 E15 ;Draw the first line
G1 X10.4 Y200.0 Z0.28 F5000.0 ;Move to side a little
G1 X10.4 Y20 Z0.28 F1500.0 E30 ;Draw the second line
G92 E0 ;Reset Extruder
G1 Z2.0 F3000 ;Move Z Axis up

G92 E0
G92 E0
G1 F1500 E-6.5
;LAYER_COUNT:83
;LAYER:0
M107
G0 F6000 X129.38 Y137.764 Z0.12
;TYPE:SKIRT
G1 F1500 E0
G1 F1200 X131.403 Y136.557 E0.04701
G1 X133.121 Y136.275 E0.08175
G1 X144.743 Y136.2 E0.31369
G1 X146.651 Y136.668 E0.35289
G1 X148.677 Y137.719 E0.39844
G1 X149.963 Y139.095 E0.43603
G1 X151.38 Y137.771 E0.47473
G1 X153.403 Y136.564 E0.52174
G1 X155.121 Y136.282 E0.55648
G1 X166.743 Y136.207 E0.78842
G1 X168.651 Y136.675 E0.82762
G1 X170.677 Y137.726 E0.87317
G1 X172.154 Y139.305 E0.91632
G1 X173.097 Y140.899 E0.95327
G1 X173.401 Y141.647 E0.96939
G1 X173.651 Y143.306 E1.00287
G1 X173.703 Y147.577 E1.08811
G1 X173.256 Y149.402 E1.1256
G1 X172.183 Y151.482 E1.17231
G1 X170.612 Y152.946 E1.21516
G1 X168.896 Y153.959 E1.25493
G1 X168.367 Y154.182 E1.26639
G1 X166.497 Y154.457 E1.30411
G1 X165.9 Y154.465 E1.31602
G1 X165.9 Y156.953 E1.36567
G1 X165.434 Y158.849 E1.40463
G1 X164.381 Y160.877 E1.45024
G1 X162.82 Y162.336 E1.49288
G1 X160.797 Y163.543 E1.53989
G1 X159.079 Y163.825 E1.57463
G1 X141.051 Y163.9 E1.9344
G1 X139.15 Y163.433 E1.97346
G1 X137.123 Y162.381 E2.01904
G1 X135.649 Y160.805 E2.0621
G1 X134.627 Y159.081 E2.1021
G1 X134.424 Y158.599 E2.11253
G1 X134.148 Y156.757 E2.1497
G1 X134.127 Y154.5 E2.19475
G1 X133.247 Y154.5 E2.21231
G1 X131.351 Y154.034 E2.25127
G1 X129.323 Y152.981 E2.29687
G1 X127.846 Y151.402 E2.34002
G1 X126.903 Y149.808 E2.37698
G1 X126.599 Y149.06 E2.39309
G1 X126.349 Y147.401 E2.42657
G1 X126.297 Y143.122 E2.51197
G1 X126.745 Y141.296 E2.54949
G1 X127.817 Y139.223 E2.59606
G1 X129.38 Y137.764 E2.63873
G0 F6000 X129.619 Y138.088
G1 F1200 X131.543 Y136.94 E2.68344
G1 X133.186 Y136.67 E2.71667
G1 X144.698 Y136.6 E2.94641
G1 X146.508 Y137.044 E2.9836
G1 X148.432 Y138.042 E3.02686
G1 X149.824 Y139.531 E3.06753
G1 X149.978 Y139.79 E3.07355
G1 X150.142 Y139.475 E3.08063
G1 X151.619 Y138.095 E3.12097
G1 X153.543 Y136.947 E3.16568
G1 X155.186 Y136.677 E3.19891
G1 X166.698 Y136.607 E3.42865
G1 X168.508 Y137.051 E3.46584
G1 X170.432 Y138.049 E3.50909
G1 X171.83 Y139.544 E3.54994
G1 X172.726 Y141.05 E3.58491
G1 X173.012 Y141.754 E3.60008
G1 X173.255 Y143.366 E3.63261
G1 X173.302 Y147.53 E3.71571
G1 X172.877 Y149.265 E3.75136
G1 X171.861 Y151.234 E3.79557
G1 X170.369 Y152.625 E3.83628
G1 X168.741 Y153.59 E3.87405
G1 X168.259 Y153.793 E3.88449
G1 X166.492 Y154.057 E3.92014
G1 X165.5 Y154.07 E3.93994
G1 X165.5 Y156.907 E3.99655
G1 X165.058 Y158.706 E4.03352
G1 X164.058 Y160.632 E4.07683
G1 X162.581 Y162.012 E4.11717
G1 X160.657 Y163.16 E4.16188
G1 X159.014 Y163.43 E4.19511
G1 X141.096 Y163.5 E4.55268
G1 X139.293 Y163.057 E4.58973
G1 X137.368 Y162.058 E4.63301
G1 X135.973 Y160.566 E4.67377
G1 X134.996 Y158.926 E4.71187
G1 X134.813 Y158.491 E4.72129
G1 X134.544 Y156.698 E4.75747
G1 X134.524 Y154.1 E4.80932
G1 X133.293 Y154.1 E4.83388
G1 X131.494 Y153.658 E4.87085
G1 X129.568 Y152.658 E4.91416
G1 X128.17 Y151.163 E4.95501
G1 X127.274 Y149.657 E4.98998
G1 X126.988 Y148.953 E5.00514
G1 X126.745 Y147.341 E5.03767
G1 X126.698 Y143.17 E5.12091
G1 X127.123 Y141.435 E5.15656
G1 X128.141 Y139.468 E5.20076
G1 X129.619 Y138.088 E5.24111
G0 F6000 X129.861 Y138.409
G1 F1200 X131.681 Y137.323 E5.28341
G1 X133.251 Y137.065 E5.31516
G1 X144.653 Y137 E5.5427
G1 X146.365 Y137.42 E5.57788
G1 X148.187 Y138.365 E5.61884
G1 X149.5 Y139.77 E5.65722
G1 X150.002 Y140.612 E5.67678
G1 X150.465 Y139.72 E5.69684
G1 X151.861 Y138.416 E5.73496
G1 X153.681 Y137.33 E5.77725
G1 X155.251 Y137.072 E5.809
G1 X166.653 Y137.007 E6.03655
G1 X168.365 Y137.427 E6.07172
G1 X170.187 Y138.372 E6.11268
G1 X171.506 Y139.783 E6.15123
G1 X172.382 Y141.255 E6.18541
G1 X172.622 Y141.856 E6.19833
G1 X172.859 Y143.426 E6.23001
G1 X172.901 Y147.482 E6.31096
G1 X172.499 Y149.126 E6.34473
G1 X171.538 Y150.987 E6.38653
G1 X170.127 Y152.303 E6.42504
G1 X168.586 Y153.221 E6.46083
G1 X168.151 Y153.404 E6.47025
G1 X166.433 Y153.661 E6.50491
G1 X165.1 Y153.674 E6.53152
G1 X165.1 Y156.86 E6.5951
G1 X164.681 Y158.564 E6.63012
G1 X163.735 Y160.387 E6.6711
G1 X162.339 Y161.691 E6.70922
G1 X160.519 Y162.777 E6.75152
G1 X158.949 Y163.035 E6.78327
G1 X141.141 Y163.1 E7.13865
G1 X139.436 Y162.681 E7.17369
G1 X137.613 Y161.735 E7.21467
G1 X136.297 Y160.327 E7.25314
G1 X135.34 Y158.721 E7.29044
G1 X135.202 Y158.384 E7.29771
G1 X134.94 Y156.639 E7.33292
G1 X134.921 Y153.7 E7.39158
G1 X133.34 Y153.7 E7.42313
G1 X131.636 Y153.281 E7.45814
G1 X129.813 Y152.335 E7.49913
G1 X128.494 Y150.924 E7.53768
G1 X127.618 Y149.452 E7.57186
G1 X127.378 Y148.851 E7.58477
G1 X127.141 Y147.281 E7.61646
G1 X127.099 Y143.218 E7.69755
G1 X127.501 Y141.574 E7.73132
G1 X128.465 Y139.713 E7.77315
G1 X129.861 Y138.409 E7.81127
G0 F6000 X130.103 Y138.73
G1 F1200 X131.819 Y137.706 E7.85115
G1 X133.316 Y137.46 E7.88142
G1 X144.608 Y137.4 E8.10677
G1 X146.222 Y137.796 E8.13993
G1 X147.942 Y138.688 E8.1786
G1 X149.176 Y140.009 E8.21467
G1 X150.026 Y141.434 E8.24779
G1 X150.788 Y139.965 E8.28081
G1 X152.103 Y138.737 E8.31672
G1 X153.819 Y137.713 E8.35659
G1 X155.316 Y137.467 E8.38687
G1 X166.608 Y137.407 E8.61222
G1 X168.222 Y137.803 E8.64538
G1 X169.942 Y138.695 E8.68405
G1 X171.182 Y140.022 E8.72029
G1 X172.038 Y141.46 E8.75369
G1 X172.233 Y141.96 E8.7644
G1 X172.463 Y143.486 E8.79519
G1 X172.5 Y147.434 E8.87398
G1 X172.121 Y148.987 E8.90589
G1 X171.214 Y150.742 E8.94531
G1 X169.888 Y151.979 E8.9815
G1 X168.381 Y152.877 E9.01651
G1 X168.044 Y153.015 E9.02377
G1 X166.374 Y153.265 E9.05747
G1 X164.7 Y153.277 E9.09088
G1 X164.7 Y156.814 E9.16146
G1 X164.305 Y158.421 E9.19449
G1 X163.412 Y160.142 E9.23318
G1 X162.097 Y161.37 E9.26909
G1 X160.381 Y162.394 E9.30896
G1 X158.884 Y162.64 E9.33924
G1 X141.186 Y162.7 E9.69242
G1 X139.579 Y162.305 E9.72545
G1 X137.858 Y161.412 E9.76414
G1 X136.621 Y160.088 E9.8003
G1 X135.684 Y158.516 E9.83682
G1 X135.589 Y158.273 E9.84203
G1 X135.34 Y156.636 E9.87507
G1 X135.319 Y153.3 E9.94165
G1 X133.386 Y153.3 E9.98022
G1 X131.779 Y152.905 E10.01324
G1 X130.058 Y152.012 E10.05194
G1 X128.818 Y150.685 E10.08818
G1 X127.962 Y149.247 E10.12158
G1 X127.767 Y148.747 E10.13229
G1 X127.537 Y147.221 E10.16308
G1 X127.5 Y143.266 E10.24201
G1 X127.879 Y141.713 E10.27392
G1 X128.788 Y139.958 E10.31336
G1 X130.103 Y138.73 E10.34926
G0 F6000 X130.345 Y139.051
G1 F1200 X131.957 Y138.089 E10.38673
G1 X133.381 Y137.855 E10.41552
G1 X144.563 Y137.8 E10.63868
G1 X146.079 Y138.172 E10.66983
G1 X147.697 Y139.011 E10.7062
G1 X148.852 Y140.248 E10.73997
G1 X149.811 Y141.856 E10.77733
G1 X149.99 Y142.972 E10.79989
G1 X150.271 Y141.829 E10.82338
G1 X151.111 Y140.21 E10.85978
G1 X152.345 Y139.058 E10.89347
G1 X153.957 Y138.096 E10.93093
G1 X155.381 Y137.862 E10.95973
G1 X166.563 Y137.807 E11.18288
G1 X168.079 Y138.179 E11.21403
G1 X169.697 Y139.018 E11.2504
G1 X170.858 Y140.261 E11.28434
G1 X171.694 Y141.665 E11.31695
G1 X171.843 Y142.06 E11.32538
G1 X172.067 Y143.546 E11.35537
G1 X172.1 Y147.386 E11.432
G1 X171.743 Y148.848 E11.46204
G1 X170.89 Y150.497 E11.49909
G1 X169.649 Y151.655 E11.53296
G1 X168.176 Y152.533 E11.56718
G1 X167.933 Y152.628 E11.57239
G1 X166.371 Y152.865 E11.60391
G1 X164.3 Y152.88 E11.64524
G1 X164.3 Y156.768 E11.72283
G1 X163.929 Y158.278 E11.75386
G1 X163.089 Y159.897 E11.79026
G1 X161.855 Y161.049 E11.82395
G1 X160.243 Y162.011 E11.86141
G1 X158.819 Y162.245 E11.89021
G1 X141.232 Y162.3 E12.24118
G1 X139.722 Y161.929 E12.27221
G1 X138.103 Y161.089 E12.30861
G1 X136.945 Y159.849 E12.34247
G1 X136.028 Y158.311 E12.3782
G1 X135.977 Y158.168 E12.38123
G1 X135.74 Y156.633 E12.41223
G1 X135.716 Y152.9 E12.48672
G1 X133.432 Y152.9 E12.5323
G1 X131.922 Y152.529 E12.56333
G1 X130.303 Y151.689 E12.59973
G1 X129.142 Y150.446 E12.63368
G1 X128.306 Y149.042 E12.66628
G1 X128.157 Y148.647 E12.67471
G1 X127.933 Y147.161 E12.7047
G1 X127.9 Y143.314 E12.78147
G1 X128.257 Y141.852 E12.81151
G1 X129.111 Y140.203 E12.84856
G1 X130.345 Y139.051 E12.88225
G0 F6000 X130.587 Y139.372
G1 F1200 X132.095 Y138.472 E12.9173
G1 X133.446 Y138.25 E12.94462
G1 X144.518 Y138.2 E13.16558
G1 X145.936 Y138.548 E13.19472
G1 X147.452 Y139.334 E13.22879
G1 X148.528 Y140.487 E13.26027
G1 X149.428 Y141.996 E13.29533
G1 X149.655 Y143.408 E13.32387
G1 X149.687 Y148.4 E13.42349
G1 X150.3 Y148.4 E13.43572
G1 X150.3 Y143.386 E13.53578
G1 X150.648 Y141.971 E13.56486
G1 X151.434 Y140.455 E13.59894
G1 X152.587 Y139.379 E13.63041
G1 X154.095 Y138.479 E13.66546
G1 X155.446 Y138.257 E13.69278
G1 X166.518 Y138.207 E13.91374
G1 X167.936 Y138.555 E13.94288
G1 X169.452 Y139.341 E13.97695
G1 X170.534 Y140.5 E14.00859
G1 X171.35 Y141.87 E14.04042
G1 X171.453 Y142.159 E14.04654
G1 X171.671 Y143.606 E14.07574
G1 X171.7 Y147.338 E14.15022
G1 X171.365 Y148.709 E14.17838
G1 X170.566 Y150.252 E14.21306
G1 X169.41 Y151.331 E14.24462
G1 X167.971 Y152.189 E14.27805
G1 X167.828 Y152.24 E14.28108
G1 X166.368 Y152.465 E14.31056
G1 X163.9 Y152.483 E14.35981
G1 X163.9 Y156.721 E14.44439
G1 X163.552 Y158.136 E14.47347
G1 X162.766 Y159.652 E14.50754
G1 X161.613 Y160.728 E14.53902
G1 X160.105 Y161.628 E14.57406
G1 X158.754 Y161.85 E14.60139
G1 X141.279 Y161.9 E14.95012
G1 X139.864 Y161.552 E14.9792
G1 X138.348 Y160.766 E15.01328
G1 X137.269 Y159.61 E15.04483
G1 X136.372 Y158.106 E15.07978
G1 X136.14 Y156.63 E15.1096
G1 X136.114 Y152.5 E15.19202
G1 X133.479 Y152.5 E15.2446
G1 X132.064 Y152.152 E15.27368
G1 X130.548 Y151.366 E15.30776
G1 X129.466 Y150.207 E15.3394
G1 X128.65 Y148.837 E15.37122
G1 X128.547 Y148.548 E15.37734
G1 X128.329 Y147.101 E15.40655
G1 X128.3 Y143.362 E15.48117
G1 X128.635 Y141.991 E15.50933
G1 X129.434 Y140.448 E15.54401
G1 X130.587 Y139.372 E15.57548
G0 F6000 X130.829 Y139.693
G1 F1200 X132.233 Y138.855 E15.60811
G1 X133.511 Y138.645 E15.63395
G1 X144.473 Y138.6 E15.85271
G1 X145.793 Y138.924 E15.87984
G1 X147.207 Y139.657 E15.91162
G1 X148.207 Y140.729 E15.94088
G1 X149.045 Y142.133 E15.97351
G1 X149.255 Y143.411 E15.99935
G1 X149.29 Y148.8 E16.1069
G1 X150.7 Y148.8 E16.13504
G1 X150.7 Y143.432 E16.24216
G1 X151.024 Y142.114 E16.26925
G1 X151.757 Y140.7 E16.30103
G1 X152.829 Y139.7 E16.33029
G1 X154.233 Y138.862 E16.36292
G1 X155.511 Y138.652 E16.38876
G1 X166.473 Y138.607 E16.60752
G1 X167.793 Y138.931 E16.63465
G1 X169.207 Y139.664 E16.66643
G1 X170.21 Y140.739 E16.69577
G1 X171.006 Y142.075 E16.72681
G1 X171.057 Y142.219 E16.72985
G1 X171.275 Y143.666 E16.75906
G1 X171.3 Y147.29 E16.83138
G1 X170.987 Y148.57 E16.85768
G1 X170.243 Y150.007 E16.88997
G1 X169.171 Y151.007 E16.91922
G1 X167.766 Y151.845 E16.95187
G1 X166.365 Y152.065 E16.98017
G1 X163.5 Y152.086 E17.03735
G1 X163.5 Y156.675 E17.12893
G1 X163.176 Y157.993 E17.15601
G1 X162.443 Y159.407 E17.18779
G1 X161.371 Y160.407 E17.21705
G1 X159.967 Y161.245 E17.24968
G1 X158.689 Y161.455 E17.27553
G1 X141.325 Y161.5 E17.62204
G1 X140.007 Y161.176 E17.64913
G1 X138.593 Y160.443 E17.68091
G1 X137.593 Y159.371 E17.71017
G1 X136.755 Y157.966 E17.74282
G1 X136.54 Y156.627 E17.76988
G1 X136.511 Y152.1 E17.86022
G1 X133.525 Y152.1 E17.91981
G1 X132.207 Y151.776 E17.9469
G1 X130.793 Y151.043 E17.97868
G1 X129.79 Y149.968 E18.00802
G1 X128.994 Y148.632 E18.03906
G1 X128.943 Y148.488 E18.0421
G1 X128.725 Y147.041 E18.07131
G1 X128.7 Y143.41 E18.14377
G1 X129.013 Y142.13 E18.17007
G1 X129.757 Y140.693 E18.20236
G1 X130.829 Y139.693 E18.23161
G0 F6000 X131.074 Y140.012
G1 F1200 X132.371 Y139.238 E18.26176
G1 X133.576 Y139.04 E18.28612
G1 X144.428 Y139 E18.50269
G1 X145.65 Y139.3 E18.5278
G1 X146.96 Y139.979 E18.55725
G1 X147.888 Y140.974 E18.5844
G1 X148.662 Y142.271 E18.61454
G1 X148.86 Y143.476 E18.63891
G1 X148.892 Y149.2 E18.75314
G1 X151.1 Y149.2 E18.7972
G1 X151.1 Y143.478 E18.91139
G1 X151.4 Y142.257 E18.93648
G1 X152.079 Y140.947 E18.96593
G1 X153.074 Y140.019 E18.99308
G1 X154.371 Y139.245 E19.02322
G1 X155.576 Y139.047 E19.04759
G1 X166.428 Y139.007 E19.26416
G1 X167.65 Y139.307 E19.28927
G1 X168.96 Y139.986 E19.31871
G1 X169.888 Y140.981 E19.34586
G1 X170.662 Y142.28 E19.37604
G1 X170.875 Y143.669 E19.40408
G1 X170.9 Y147.241 E19.47537
G1 X170.609 Y148.431 E19.49981
G1 X169.921 Y149.76 E19.52968
G1 X168.926 Y150.688 E19.55683
G1 X167.629 Y151.462 E19.58697
G1 X166.362 Y151.665 E19.61258
G1 X163.1 Y151.689 E19.67768
G1 X163.1 Y156.629 E19.77626
G1 X162.8 Y157.85 E19.80135
G1 X162.121 Y159.16 E19.8308
G1 X161.126 Y160.088 E19.85795
G1 X159.829 Y160.862 E19.88809
G1 X158.624 Y161.06 E19.91246
G1 X141.371 Y161.1 E20.25676
G1 X140.15 Y160.8 E20.28186
G1 X138.84 Y160.121 E20.3113
G1 X137.912 Y159.126 E20.33845
G1 X137.138 Y157.829 E20.36859
G1 X136.94 Y156.624 E20.39296
G1 X136.908 Y151.7 E20.49123
G1 X133.571 Y151.7 E20.55782
G1 X132.35 Y151.4 E20.58291
G1 X131.04 Y150.721 E20.61236
G1 X130.112 Y149.726 E20.63951
G1 X129.338 Y148.427 E20.66969
G1 X129.125 Y147.038 E20.69773
G1 X129.1 Y143.459 E20.76916
G1 X129.391 Y142.269 E20.7936
G1 X130.079 Y140.94 E20.82347
G1 X131.074 Y140.012 E20.85062
G0 F6000 X131.316 Y140.334
G1 F1200 X132.511 Y139.621 E20.87839
G1 X133.641 Y139.435 E20.90124
G1 X144.383 Y139.4 E21.11561
G1 X145.507 Y139.676 E21.13871
G1 X146.713 Y140.301 E21.16582
G1 X147.566 Y141.216 E21.19078
G1 X148.279 Y142.411 E21.21855
G1 X148.465 Y143.541 E21.2414
G1 X148.494 Y149.6 E21.36232
G1 X151.5 Y149.6 E21.42231
G1 X151.5 Y143.524 E21.54356
G1 X151.776 Y142.4 E21.56666
G1 X152.401 Y141.194 E21.59376
G1 X153.316 Y140.341 E21.61873
G1 X154.511 Y139.628 E21.6465
G1 X155.641 Y139.442 E21.66935
G1 X166.383 Y139.407 E21.88372
G1 X167.507 Y139.683 E21.90682
G1 X168.713 Y140.308 E21.93392
G1 X169.566 Y141.223 E21.95889
G1 X170.279 Y142.419 E21.98668
G1 X170.475 Y143.672 E22.01198
G1 X170.5 Y147.192 E22.08223
G1 X170.231 Y148.292 E22.10483
G1 X169.599 Y149.513 E22.13227
G1 X168.684 Y150.366 E22.15723
G1 X167.489 Y151.079 E22.185
G1 X166.359 Y151.265 E22.20785
G1 X162.7 Y151.292 E22.28088
G1 X162.7 Y156.583 E22.38646
G1 X162.424 Y157.707 E22.40956
G1 X161.799 Y158.913 E22.43667
G1 X160.884 Y159.766 E22.46163
G1 X159.689 Y160.479 E22.4894
G1 X158.559 Y160.665 E22.51225
G1 X141.417 Y160.7 E22.85434
G1 X140.293 Y160.424 E22.87744
G1 X139.087 Y159.799 E22.90455
G1 X138.234 Y158.884 E22.92951
G1 X137.521 Y157.689 E22.95728
G1 X137.335 Y156.559 E22.98013
G1 X137.306 Y151.3 E23.08508
G1 X133.617 Y151.3 E23.1587
G1 X132.493 Y151.024 E23.1818
G1 X131.287 Y150.399 E23.20891
G1 X130.434 Y149.484 E23.23387
G1 X129.721 Y148.288 E23.26166
G1 X129.525 Y147.035 E23.28697
G1 X129.5 Y143.508 E23.35735
G1 X129.769 Y142.408 E23.37995
G1 X130.401 Y141.187 E23.40739
G1 X131.316 Y140.334 E23.43235
G0 F6000 X131.558 Y140.656
G1 F1200 X132.651 Y140.004 E23.45775
G1 X133.706 Y139.83 E23.47909
G1 X144.336 Y139.8 E23.69122
G1 X145.365 Y140.053 E23.71237
G1 X146.466 Y140.623 E23.73711
G1 X147.244 Y141.458 E23.75989
G1 X147.896 Y142.551 E23.78528
G1 X148.07 Y143.606 E23.80662
G1 X148.096 Y150 E23.93422
G1 X151.9 Y150 E24.01013
G1 X151.9 Y143.571 E24.13843
G1 X152.153 Y142.542 E24.15958
G1 X152.723 Y141.441 E24.18432
G1 X153.558 Y140.663 E24.2071
G1 X154.651 Y140.011 E24.23249
G1 X155.706 Y139.837 E24.25383
G1 X166.336 Y139.807 E24.46597
G1 X167.365 Y140.06 E24.48711
G1 X168.466 Y140.63 E24.51185
G1 X169.244 Y141.465 E24.53463
G1 X169.896 Y142.559 E24.56004
G1 X170.075 Y143.675 E24.5826
